(Flying wing)
(4-axis hot wire foam cutting)
(axes XY and UV represent parallel planes)
( - set software setting "Machine type" to "Hot wire")
G21 
G17 
G90 
F 200.0000
M3
G00 X 0.0000 Y 0.0000 U 0.0000 V 0.0000
G00 X 0.0000 Y 14.6772 U 0.0000 V 24.3006
G01 X 58.5951 Y 14.6772 U 0.0421 V 24.3006 F 200.0000
G01 X 68.5457 Y 15.6918 U 10.0000 V 25.2410
G01 X 69.2405 Y 15.7611 U 10.2971 V 25.2685
G01 X 69.9352 Y 15.8305 U 10.5943 V 25.2958
G01 X 70.6299 Y 15.9003 U 10.8915 V 25.3230
G01 X 71.3245 Y 15.9704 U 11.1887 V 25.3501
G01 X 72.0191 Y 16.0410 U 11.4858 V 25.3776
G01 X 72.7137 Y 16.1122 U 11.7829 V 25.4054
G01 X 73.4081 Y 16.1841 U 12.0800 V 25.4337
G01 X 74.1026 Y 16.2564 U 12.3770 V 25.4624
G01 X 74.7969 Y 16.3291 U 12.6740 V 25.4914
G01 X 75.4913 Y 16.4018 U 12.9710 V 25.5205
G01 X 76.1857 Y 16.4747 U 13.2680 V 25.5498
G01 X 76.8800 Y 16.5477 U 13.5650 V 25.5791
G01 X 77.5744 Y 16.6211 U 13.8620 V 25.6083
G01 X 78.2686 Y 16.6949 U 14.1589 V 25.6375
G01 X 78.9628 Y 16.7691 U 14.4559 V 25.6666
G01 X 79.6570 Y 16.8438 U 14.7529 V 25.6959
G01 X 80.3511 Y 16.9190 U 15.0498 V 25.7255
G01 X 81.0452 Y 16.9946 U 15.3468 V 25.7554
G01 X 81.7392 Y 17.0707 U 15.6436 V 25.7858
G01 X 82.4332 Y 17.1472 U 15.9404 V 25.8166
G01 X 83.1271 Y 17.2242 U 16.2372 V 25.8477
G01 X 83.8210 Y 17.3016 U 16.5340 V 25.8792
G01 X 84.5148 Y 17.3794 U 16.8307 V 25.9110
G01 X 85.2086 Y 17.4576 U 17.1274 V 25.9431
G01 X 85.9024 Y 17.5359 U 17.4241 V 25.9752
G01 X 86.5962 Y 17.6144 U 17.7207 V 26.0074
G01 X 87.2899 Y 17.6931 U 18.0174 V 26.0396
G01 X 87.9836 Y 17.7721 U 18.3141 V 26.0719
G01 X 88.6772 Y 17.8516 U 18.6107 V 26.1041
G01 X 89.3708 Y 17.9316 U 18.9074 V 26.1365
G01 X 90.0643 Y 18.0121 U 19.2040 V 26.1689
G01 X 90.7578 Y 18.0928 U 19.5007 V 26.2014
G01 X 91.4513 Y 18.1735 U 19.7973 V 26.2340
G01 X 92.1449 Y 18.2540 U 20.0939 V 26.2668
G01 X 92.8384 Y 18.3344 U 20.3905 V 26.2995
G01 X 93.5319 Y 18.4151 U 20.6871 V 26.3324
G01 X 94.2253 Y 18.4962 U 20.9837 V 26.3653
G01 X 94.9187 Y 18.5780 U 21.2803 V 26.3982
G01 X 95.6120 Y 18.6603 U 21.5769 V 26.4313
G01 X 96.3053 Y 18.7428 U 21.8735 V 26.4645
G01 X 96.9986 Y 18.8254 U 22.1700 V 26.4978
G01 X 97.6919 Y 18.9078 U 22.4665 V 26.5314
G01 X 98.3852 Y 18.9901 U 22.7630 V 26.5650
G01 X 99.0785 Y 19.0723 U 23.0596 V 26.5987
G01 X 99.7718 Y 19.1547 U 23.3561 V 26.6322
G01 X 100.4651 Y 19.2371 U 23.6526 V 26.6656
G01 X 101.1584 Y 19.3196 U 23.9492 V 26.6987
G01 X 101.8517 Y 19.4020 U 24.2458 V 26.7318
G01 X 102.5451 Y 19.4839 U 24.5424 V 26.7648
G01 X 103.2385 Y 19.5655 U 24.8389 V 26.7978
G01 X 103.9319 Y 19.6468 U 25.1355 V 26.8309
G01 X 104.6253 Y 19.7281 U 25.4321 V 26.8640
G01 X 105.3187 Y 19.8099 U 25.7287 V 26.8969
G01 X 106.0120 Y 19.8922 U 26.0253 V 26.9298
G01 X 106.7053 Y 19.9748 U 26.3219 V 26.9626
G01 X 107.3986 Y 20.0574 U 26.6185 V 26.9954
G01 X 108.0919 Y 20.1395 U 26.9151 V 27.0283
G01 X 108.7853 Y 20.2211 U 27.2117 V 27.0614
G01 X 109.4787 Y 20.3023 U 27.5082 V 27.0948
G01 X 110.1722 Y 20.3837 U 27.8047 V 27.1282
G01 X 110.8655 Y 20.4656 U 28.1013 V 27.1615
G01 X 111.5588 Y 20.5482 U 28.3978 V 27.1948
G01 X 112.2520 Y 20.6314 U 28.6944 V 27.2279
G01 X 112.9452 Y 20.7150 U 28.9910 V 27.2609
G01 X 113.6383 Y 20.7985 U 29.2876 V 27.2939
G01 X 114.3315 Y 20.8819 U 29.5842 V 27.3271
G01 X 115.0247 Y 20.9651 U 29.8807 V 27.3604
G01 X 115.7180 Y 21.0480 U 30.1772 V 27.3938
G01 X 116.4112 Y 21.1306 U 30.4738 V 27.4271
G01 X 117.1045 Y 21.2130 U 30.7704 V 27.4602
G01 X 117.7979 Y 21.2952 U 31.0670 V 27.4929
G01 X 118.4912 Y 21.3776 U 31.3636 V 27.5253
G01 X 119.1844 Y 21.4601 U 31.6603 V 27.5577
G01 X 119.8777 Y 21.5430 U 31.9569 V 27.5905
G01 X 120.5709 Y 21.6262 U 32.2535 V 27.6237
G01 X 121.2641 Y 21.7097 U 32.5500 V 27.6575
G01 X 121.9572 Y 21.7934 U 32.8464 V 27.6914
G01 X 122.6503 Y 21.8774 U 33.1429 V 27.7253
G01 X 123.3434 Y 21.9614 U 33.4394 V 27.7589
G01 X 124.0365 Y 22.0456 U 33.7360 V 27.7922
G01 X 124.7296 Y 22.1297 U 34.0326 V 27.8253
G01 X 125.4227 Y 22.2138 U 34.3291 V 27.8584
G01 X 126.1158 Y 22.2980 U 34.6257 V 27.8915
G01 X 126.8089 Y 22.3822 U 34.9223 V 27.9247
G01 X 127.5019 Y 22.4665 U 35.2188 V 27.9583
G01 X 128.1950 Y 22.5511 U 35.5153 V 27.9922
G01 X 128.8880 Y 22.6360 U 35.8117 V 28.0266
G01 X 129.5809 Y 22.7213 U 36.1081 V 28.0614
G01 X 130.2738 Y 22.8071 U 36.4044 V 28.0964
G01 X 130.9666 Y 22.8934 U 36.7008 V 28.1315
G01 X 131.6594 Y 22.9801 U 36.9971 V 28.1664
G01 X 132.3521 Y 23.0673 U 37.2935 V 28.2012
G01 X 133.0448 Y 23.1547 U 37.5899 V 28.2358
G01 X 133.7375 Y 23.2423 U 37.8863 V 28.2704
G01 X 134.4301 Y 23.3299 U 38.1827 V 28.3050
G01 X 135.1228 Y 23.4173 U 38.4791 V 28.3397
G01 X 135.8156 Y 23.5043 U 38.7755 V 28.3745
G01 X 136.5083 Y 23.5910 U 39.0719 V 28.4093
G01 X 137.2011 Y 23.6777 U 39.3682 V 28.4441
G01 X 137.8939 Y 23.7647 U 39.6646 V 28.4789
G01 X 138.5865 Y 23.8521 U 39.9610 V 28.5139
G01 X 139.2792 Y 23.9401 U 40.2573 V 28.5491
G01 X 139.9717 Y 24.0287 U 40.5536 V 28.5846
G01 X 140.6642 Y 24.1178 U 40.8499 V 28.6205
G01 X 141.3566 Y 24.2075 U 41.1461 V 28.6567
G01 X 142.0489 Y 24.2975 U 41.4423 V 28.6928
G01 X 142.7412 Y 24.3878 U 41.7385 V 28.7288
G01 X 143.4335 Y 24.4781 U 42.0348 V 28.7645
G01 X 144.1259 Y 24.5683 U 42.3311 V 28.8000
G01 X 144.8182 Y 24.6584 U 42.6274 V 28.8355
G01 X 145.5106 Y 24.7484 U 42.9237 V 28.8711
G01 X 146.2029 Y 24.8384 U 43.2200 V 28.9068
G01 X 146.8953 Y 24.9283 U 43.5162 V 28.9427
G01 X 147.5876 Y 25.0183 U 43.8124 V 28.9787
G01 X 148.2800 Y 25.1085 U 44.1086 V 29.0149
G01 X 148.9723 Y 25.1989 U 44.4048 V 29.0512
G01 X 149.6646 Y 25.2895 U 44.7010 V 29.0875
G01 X 150.3568 Y 25.3804 U 44.9972 V 29.1239
G01 X 151.0490 Y 25.4714 U 45.2934 V 29.1603
G01 X 151.7412 Y 25.5624 U 45.5896 V 29.1966
G01 X 152.4335 Y 25.6532 U 45.8858 V 29.2328
G01 X 153.1257 Y 25.7441 U 46.1820 V 29.2690
G01 X 153.8180 Y 25.8350 U 46.4783 V 29.3051
G01 X 154.5101 Y 25.9263 U 46.7745 V 29.3412
G01 X 155.2023 Y 26.0180 U 47.0707 V 29.3773
G01 X 155.8944 Y 26.1098 U 47.3669 V 29.4135
G01 X 156.5865 Y 26.2017 U 47.6631 V 29.4497
G01 X 157.2786 Y 26.2933 U 47.9593 V 29.4860
G01 X 157.9708 Y 26.3846 U 48.2555 V 29.5222
G01 X 158.6631 Y 26.4755 U 48.5518 V 29.5583
G01 X 159.3553 Y 26.5662 U 48.8480 V 29.5944
G01 X 160.0476 Y 26.6569 U 49.1442 V 29.6305
G01 X 160.7398 Y 26.7478 U 49.4405 V 29.6664
G01 X 161.4321 Y 26.8387 U 49.7367 V 29.7024
G01 X 162.1243 Y 26.9296 U 50.0329 V 29.7383
G01 X 162.8165 Y 27.0206 U 50.3292 V 29.7743
G01 X 163.5088 Y 27.1114 U 50.6254 V 29.8103
G01 X 164.2010 Y 27.2023 U 50.9216 V 29.8463
G01 X 164.8933 Y 27.2932 U 51.2179 V 29.8822
G01 X 165.5855 Y 27.3842 U 51.5142 V 29.9180
G01 X 166.2777 Y 27.4754 U 51.8104 V 29.9536
G01 X 166.9699 Y 27.5664 U 52.1067 V 29.9892
G01 X 167.6621 Y 27.6573 U 52.4030 V 30.0245
G01 X 168.3545 Y 27.7476 U 52.6994 V 30.0597
G01 X 169.0468 Y 27.8375 U 52.9957 V 30.0946
G01 X 169.7393 Y 27.9268 U 53.2921 V 30.1292
G01 X 170.4318 Y 28.0158 U 53.5886 V 30.1635
G01 X 171.1243 Y 28.1046 U 53.8851 V 30.1975
G01 X 171.8168 Y 28.1932 U 54.1815 V 30.2313
G01 X 172.5094 Y 28.2816 U 54.4781 V 30.2650
G01 X 173.2020 Y 28.3697 U 54.7746 V 30.2988
G01 X 173.8946 Y 28.4575 U 55.0710 V 30.3327
G01 X 174.5873 Y 28.5449 U 55.3675 V 30.3669
G01 X 175.2800 Y 28.6323 U 55.6639 V 30.4011
G01 X 175.9726 Y 28.7199 U 55.9604 V 30.4353
G01 X 176.6653 Y 28.8078 U 56.2568 V 30.4694
G01 X 177.3578 Y 28.8961 U 56.5533 V 30.5034
G01 X 178.0504 Y 28.9846 U 56.8498 V 30.5372
G01 X 178.7430 Y 29.0729 U 57.1463 V 30.5709
G01 X 179.4356 Y 29.1606 U 57.4428 V 30.6044
G01 X 180.1283 Y 29.2478 U 57.7394 V 30.6377
G01 X 180.8211 Y 29.3344 U 58.0360 V 30.6708
G01 X 181.5139 Y 29.4207 U 58.3325 V 30.7039
G01 X 182.2068 Y 29.5067 U 58.6291 V 30.7369
G01 X 182.8997 Y 29.5925 U 58.9257 V 30.7698
G01 X 183.5926 Y 29.6782 U 59.2223 V 30.8026
G01 X 184.2855 Y 29.7637 U 59.5189 V 30.8352
G01 X 184.9785 Y 29.8490 U 59.8156 V 30.8676
G01 X 185.6714 Y 29.9340 U 60.1123 V 30.8997
G01 X 186.3645 Y 30.0189 U 60.4090 V 30.9316
G01 X 187.0575 Y 30.1035 U 60.7057 V 30.9634
G01 X 187.7505 Y 30.1880 U 61.0024 V 30.9950
G01 X 188.4436 Y 30.2722 U 61.2992 V 31.0266
G01 X 189.1367 Y 30.3561 U 61.5959 V 31.0582
G01 X 189.8299 Y 30.4395 U 61.8927 V 31.0897
G01 X 190.5231 Y 30.5225 U 62.1894 V 31.1211
G01 X 191.2164 Y 30.6051 U 62.4862 V 31.1524
G01 X 191.9097 Y 30.6874 U 62.7830 V 31.1836
G01 X 192.6031 Y 30.7696 U 63.0798 V 31.2147
G01 X 193.2964 Y 30.8519 U 63.3766 V 31.2455
G01 X 193.9897 Y 30.9342 U 63.6734 V 31.2760
G01 X 194.6830 Y 31.0163 U 63.9703 V 31.3063
G01 X 195.3764 Y 31.0981 U 64.2672 V 31.3364
G01 X 196.0698 Y 31.1792 U 64.5641 V 31.3663
G01 X 196.7634 Y 31.2598 U 64.8610 V 31.3961
G01 X 197.4569 Y 31.3402 U 65.1580 V 31.4259
G01 X 198.1504 Y 31.4205 U 65.4549 V 31.4555
G01 X 198.8440 Y 31.5010 U 65.7519 V 31.4851
G01 X 199.5375 Y 31.5817 U 66.0488 V 31.5145
G01 X 200.2310 Y 31.6623 U 66.3458 V 31.5438
G01 X 200.9245 Y 31.7425 U 66.6428 V 31.5731
G01 X 201.6182 Y 31.8221 U 66.9397 V 31.6022
G01 X 202.3118 Y 31.9013 U 67.2367 V 31.6313
G01 X 203.0056 Y 31.9800 U 67.5337 V 31.6603
G01 X 203.6993 Y 32.0585 U 67.8308 V 31.6892
G01 X 204.3931 Y 32.1369 U 68.1278 V 31.7179
G01 X 205.0869 Y 32.2151 U 68.4248 V 31.7464
G01 X 205.7807 Y 32.2929 U 68.7219 V 31.7746
G01 X 206.4746 Y 32.3703 U 69.0190 V 31.8026
G01 X 207.1685 Y 32.4470 U 69.3161 V 31.8303
G01 X 207.8625 Y 32.5234 U 69.6133 V 31.8580
G01 X 208.5565 Y 32.5994 U 69.9104 V 31.8856
G01 X 209.2506 Y 32.6754 U 70.2076 V 31.9131
G01 X 209.9446 Y 32.7516 U 70.5047 V 31.9406
G01 X 210.6386 Y 32.8277 U 70.8019 V 31.9680
G01 X 211.3326 Y 32.9038 U 71.0990 V 31.9954
G01 X 212.0267 Y 32.9795 U 71.3962 V 32.0226
G01 X 212.7208 Y 33.0548 U 71.6934 V 32.0496
G01 X 213.4150 Y 33.1296 U 71.9906 V 32.0763
G01 X 214.1092 Y 33.2039 U 72.2878 V 32.1026
G01 X 214.8034 Y 33.2777 U 72.5851 V 32.1285
G01 X 215.4978 Y 33.3510 U 72.8824 V 32.1542
G01 X 216.1922 Y 33.4237 U 73.1798 V 32.1797
G01 X 216.8866 Y 33.4960 U 73.4771 V 32.2050
G01 X 217.5810 Y 33.5679 U 73.7745 V 32.2300
G01 X 218.2756 Y 33.6395 U 74.0719 V 32.2547
G01 X 218.9701 Y 33.7106 U 74.3693 V 32.2792
G01 X 219.6647 Y 33.7813 U 74.6667 V 32.3033
G01 X 220.3593 Y 33.8516 U 74.9642 V 32.3271
G01 X 221.0540 Y 33.9215 U 75.2617 V 32.3507
G01 X 221.7487 Y 33.9909 U 75.5592 V 32.3741
G01 X 222.4435 Y 34.0599 U 75.8567 V 32.3973
G01 X 223.1383 Y 34.1284 U 76.1542 V 32.4203
G01 X 223.8331 Y 34.1965 U 76.4517 V 32.4430
G01 X 224.5280 Y 34.2641 U 76.7493 V 32.4655
G01 X 225.2230 Y 34.3311 U 77.0469 V 32.4875
G01 X 225.9180 Y 34.3974 U 77.3445 V 32.5093
G01 X 226.6131 Y 34.4631 U 77.6422 V 32.5309
G01 X 227.3082 Y 34.5282 U 77.9398 V 32.5523
G01 X 228.0034 Y 34.5927 U 78.2375 V 32.5735
G01 X 228.6987 Y 34.6568 U 78.5351 V 32.5946
G01 X 229.3939 Y 34.7204 U 78.8328 V 32.6154
G01 X 230.0893 Y 34.7836 U 79.1305 V 32.6357
G01 X 230.7846 Y 34.8462 U 79.4283 V 32.6556
G01 X 231.4801 Y 34.9082 U 79.7261 V 32.6750
G01 X 232.1755 Y 34.9695 U 80.0239 V 32.6939
G01 X 232.8711 Y 35.0301 U 80.3217 V 32.7125
G01 X 233.5667 Y 35.0900 U 80.6196 V 32.7307
G01 X 234.2623 Y 35.1492 U 80.9175 V 32.7485
G01 X 234.9581 Y 35.2078 U 81.2154 V 32.7662
G01 X 235.6538 Y 35.2658 U 81.5133 V 32.7837
G01 X 236.3496 Y 35.3234 U 81.8112 V 32.8011
G01 X 237.0455 Y 35.3807 U 82.1091 V 32.8183
G01 X 237.7413 Y 35.4376 U 82.4070 V 32.8351
G01 X 238.4372 Y 35.4939 U 82.7050 V 32.8513
G01 X 239.1332 Y 35.5492 U 83.0030 V 32.8667
G01 X 239.8293 Y 35.6032 U 83.3011 V 32.8814
G01 X 240.5255 Y 35.6560 U 83.5991 V 32.8957
G01 X 241.2217 Y 35.7078 U 83.8972 V 32.9098
G01 X 241.9180 Y 35.7588 U 84.1953 V 32.9239
G01 X 242.6144 Y 35.8094 U 84.4934 V 32.9381
G01 X 243.3108 Y 35.8597 U 84.7915 V 32.9523
G01 X 244.0071 Y 35.9096 U 85.0896 V 32.9663
G01 X 244.7036 Y 35.9592 U 85.3876 V 32.9800
G01 X 245.4000 Y 36.0084 U 85.6858 V 32.9934
G01 X 246.0965 Y 36.0571 U 85.9839 V 33.0063
G01 X 246.7930 Y 36.1054 U 86.2821 V 33.0186
G01 X 247.4895 Y 36.1532 U 86.5803 V 33.0302
G01 X 248.1861 Y 36.2004 U 86.8785 V 33.0413
G01 X 248.8827 Y 36.2470 U 87.1767 V 33.0519
G01 X 249.5794 Y 36.2927 U 87.4749 V 33.0624
G01 X 250.2762 Y 36.3373 U 87.7731 V 33.0728
G01 X 250.9730 Y 36.3809 U 88.0714 V 33.0833
G01 X 251.6699 Y 36.4235 U 88.3696 V 33.0937
G01 X 252.3668 Y 36.4654 U 88.6678 V 33.1040
G01 X 253.0637 Y 36.5070 U 88.9661 V 33.1141
G01 X 253.7607 Y 36.5486 U 89.2643 V 33.1240
G01 X 254.4576 Y 36.5901 U 89.5626 V 33.1335
G01 X 255.1546 Y 36.6314 U 89.8609 V 33.1426
G01 X 255.8516 Y 36.6724 U 90.1592 V 33.1515
G01 X 256.5486 Y 36.7127 U 90.4575 V 33.1600
G01 X 257.2456 Y 36.7526 U 90.7558 V 33.1682
G01 X 257.9427 Y 36.7919 U 91.0541 V 33.1763
G01 X 258.6398 Y 36.8309 U 91.3524 V 33.1842
G01 X 259.3369 Y 36.8695 U 91.6507 V 33.1919
G01 X 260.0340 Y 36.9078 U 91.9490 V 33.1995
G01 X 260.7312 Y 36.9455 U 92.2473 V 33.2068
G01 X 261.4284 Y 36.9824 U 92.5457 V 33.2137
G01 X 262.1256 Y 37.0186 U 92.8440 V 33.2204
G01 X 262.8229 Y 37.0541 U 93.1424 V 33.2268
G01 X 263.5202 Y 37.0891 U 93.4407 V 33.2331
G01 X 264.2175 Y 37.1237 U 93.7391 V 33.2394
G01 X 264.9148 Y 37.1583 U 94.0374 V 33.2457
G01 X 265.6122 Y 37.1927 U 94.3358 V 33.2519
G01 X 266.3095 Y 37.2270 U 94.6341 V 33.2580
G01 X 267.0069 Y 37.2612 U 94.9325 V 33.2640
G01 X 267.7042 Y 37.2952 U 95.2308 V 33.2697
G01 X 268.4016 Y 37.3290 U 95.5292 V 33.2752
G01 X 269.0989 Y 37.3623 U 95.8276 V 33.2805
G01 X 269.7964 Y 37.3952 U 96.1259 V 33.2856
G01 X 270.4938 Y 37.4276 U 96.4243 V 33.2904
G01 X 271.1912 Y 37.4595 U 96.7227 V 33.2950
G01 X 271.8887 Y 37.4909 U 97.0211 V 33.2994
G01 X 272.5862 Y 37.5219 U 97.3195 V 33.3035
G01 X 273.2837 Y 37.5525 U 97.6178 V 33.3073
G01 X 273.9812 Y 37.5827 U 97.9162 V 33.3110
G01 X 274.6788 Y 37.6126 U 98.2146 V 33.3146
G01 X 275.3763 Y 37.6421 U 98.5130 V 33.3182
G01 X 276.0739 Y 37.6713 U 98.8114 V 33.3220
G01 X 276.7715 Y 37.7003 U 99.1098 V 33.3259
G01 X 277.4691 Y 37.7293 U 99.4082 V 33.3294
G01 X 278.1666 Y 37.7585 U 99.7066 V 33.3324
G01 X 278.8642 Y 37.7878 U 100.0050 V 33.3346
G01 X 279.5618 Y 37.8166 U 100.3034 V 33.3360
G01 X 280.2594 Y 37.8446 U 100.6018 V 33.3370
G01 X 280.9571 Y 37.8711 U 100.9002 V 33.3379
G01 X 281.6548 Y 37.8960 U 101.1987 V 33.3391
G01 X 282.3526 Y 37.9198 U 101.4971 V 33.3405
G01 X 283.0504 Y 37.9430 U 101.7955 V 33.3417
G01 X 283.7482 Y 37.9663 U 102.0939 V 33.3423
G01 X 284.4459 Y 37.9899 U 102.3923 V 33.3421
G01 X 285.1437 Y 38.0133 U 102.6907 V 33.3411
G01 X 285.8415 Y 38.0360 U 102.9891 V 33.3396
G01 X 286.5394 Y 38.0576 U 103.2875 V 33.3380
G01 X 287.2373 Y 38.0780 U 103.5860 V 33.3364
G01 X 287.9352 Y 38.0973 U 103.8844 V 33.3350
G01 X 288.6331 Y 38.1162 U 104.1828 V 33.3334
G01 X 289.3310 Y 38.1349 U 104.4812 V 33.3312
G01 X 290.0290 Y 38.1536 U 104.7796 V 33.3281
G01 X 290.7269 Y 38.1718 U 105.0780 V 33.3241
G01 X 291.4249 Y 38.1890 U 105.3763 V 33.3194
G01 X 292.1229 Y 38.2050 U 105.6747 V 33.3143
G01 X 292.8209 Y 38.2194 U 105.9731 V 33.3090
G01 X 293.5190 Y 38.2328 U 106.2715 V 33.3036
G01 X 294.2170 Y 38.2453 U 106.5698 V 33.2980
G01 X 294.9151 Y 38.2573 U 106.8682 V 33.2922
G01 X 295.6132 Y 38.2689 U 107.1665 V 33.2859
G01 X 296.3113 Y 38.2799 U 107.4649 V 33.2791
G01 X 297.0094 Y 38.2901 U 107.7632 V 33.2718
G01 X 297.7075 Y 38.2993 U 108.0615 V 33.2641
G01 X 298.4056 Y 38.3074 U 108.3598 V 33.2558
G01 X 299.1038 Y 38.3147 U 108.6581 V 33.2469
G01 X 299.8019 Y 38.3213 U 108.9563 V 33.2374
G01 X 300.5001 Y 38.3272 U 109.2546 V 33.2272
G01 X 301.1982 Y 38.3323 U 109.5528 V 33.2160
G01 X 301.8964 Y 38.3363 U 109.8510 V 33.2040
G01 X 302.5946 Y 38.3388 U 110.1491 V 33.1913
G01 X 303.2928 Y 38.3395 U 110.4472 V 33.1781
G01 X 303.9909 Y 38.3384 U 110.7453 V 33.1648
G01 X 304.6891 Y 38.3357 U 111.0435 V 33.1514
G01 X 305.3873 Y 38.3321 U 111.3416 V 33.1377
G01 X 306.0855 Y 38.3276 U 111.6396 V 33.1236
G01 X 306.7836 Y 38.3224 U 111.9377 V 33.1088
G01 X 307.4818 Y 38.3166 U 112.2357 V 33.0933
G01 X 308.1799 Y 38.3100 U 112.5337 V 33.0770
G01 X 308.8781 Y 38.3025 U 112.8316 V 33.0602
G01 X 309.5762 Y 38.2941 U 113.1295 V 33.0428
G01 X 310.2743 Y 38.2847 U 113.4274 V 33.0250
G01 X 310.9724 Y 38.2743 U 113.7253 V 33.0067
G01 X 311.6705 Y 38.2628 U 114.0231 V 32.9881
G01 X 312.3686 Y 38.2502 U 114.3209 V 32.9690
G01 X 313.0666 Y 38.2363 U 114.6187 V 32.9495
G01 X 313.7646 Y 38.2211 U 114.9164 V 32.9296
G01 X 314.4626 Y 38.2047 U 115.2141 V 32.9093
G01 X 315.1606 Y 38.1871 U 115.5118 V 32.8885
G01 X 315.8585 Y 38.1687 U 115.8095 V 32.8673
G01 X 316.5564 Y 38.1498 U 116.1071 V 32.8455
G01 X 317.2543 Y 38.1305 U 116.4047 V 32.8231
G01 X 317.9522 Y 38.1106 U 116.7022 V 32.7997
G01 X 318.6501 Y 38.0899 U 116.9996 V 32.7755
G01 X 319.3479 Y 38.0678 U 117.2970 V 32.7505
G01 X 320.0457 Y 38.0443 U 117.5943 V 32.7250
G01 X 320.7434 Y 38.0192 U 117.8916 V 32.6991
G01 X 321.4411 Y 37.9927 U 118.1889 V 32.6730
G01 X 322.1388 Y 37.9651 U 118.4861 V 32.6466
G01 X 322.8363 Y 37.9364 U 118.7833 V 32.6197
G01 X 323.5339 Y 37.9067 U 119.0805 V 32.5921
G01 X 324.2314 Y 37.8761 U 119.3775 V 32.5639
G01 X 324.9289 Y 37.8447 U 119.6745 V 32.5350
G01 X 325.6263 Y 37.8124 U 119.9715 V 32.5058
G01 X 326.3237 Y 37.7793 U 120.2685 V 32.4766
G01 X 327.0210 Y 37.7451 U 120.5655 V 32.4474
G01 X 327.7183 Y 37.7100 U 120.8625 V 32.4181
G01 X 328.4156 Y 37.6739 U 121.1594 V 32.3885
G01 X 329.1128 Y 37.6369 U 121.4563 V 32.3582
G01 X 329.8100 Y 37.5993 U 121.7530 V 32.3269
G01 X 330.5071 Y 37.5612 U 122.0497 V 32.2946
G01 X 331.2042 Y 37.5228 U 122.3463 V 32.2617
G01 X 331.9013 Y 37.4837 U 122.6428 V 32.2281
G01 X 332.5983 Y 37.4434 U 122.9393 V 32.1943
G01 X 333.2952 Y 37.4016 U 123.2358 V 32.1602
G01 X 333.9921 Y 37.3581 U 123.5322 V 32.1258
G01 X 334.6888 Y 37.3132 U 123.8286 V 32.0910
G01 X 335.3855 Y 37.2674 U 124.1249 V 32.0557
G01 X 336.0821 Y 37.2211 U 124.4211 V 32.0198
G01 X 336.7787 Y 37.1745 U 124.7173 V 31.9833
G01 X 337.4753 Y 37.1273 U 125.0134 V 31.9462
G01 X 338.1718 Y 37.0790 U 125.3094 V 31.9083
G01 X 338.8682 Y 37.0293 U 125.6053 V 31.8698
G01 X 339.5645 Y 36.9779 U 125.9012 V 31.8307
G01 X 340.2607 Y 36.9251 U 126.1969 V 31.7910
G01 X 340.9568 Y 36.8714 U 126.4927 V 31.7509
G01 X 341.6529 Y 36.8169 U 126.7883 V 31.7102
G01 X 342.3489 Y 36.7618 U 127.0838 V 31.6689
G01 X 343.0448 Y 36.7058 U 127.3792 V 31.6267
G01 X 343.7406 Y 36.6483 U 127.6745 V 31.5836
G01 X 344.4363 Y 36.5892 U 127.9697 V 31.5398
G01 X 345.1318 Y 36.5282 U 128.2648 V 31.4953
G01 X 345.8272 Y 36.4657 U 128.5598 V 31.4502
G01 X 346.5224 Y 36.4020 U 128.8547 V 31.4046
G01 X 347.2176 Y 36.3373 U 129.1495 V 31.3586
G01 X 347.9127 Y 36.2718 U 129.4443 V 31.3119
G01 X 348.6077 Y 36.2051 U 129.7389 V 31.2644
G01 X 349.3026 Y 36.1371 U 130.0333 V 31.2158
G01 X 349.9973 Y 36.0674 U 130.3276 V 31.1662
G01 X 350.6918 Y 35.9960 U 130.6217 V 31.1155
G01 X 351.3861 Y 35.9229 U 130.9156 V 31.0640
G01 X 352.0803 Y 35.8482 U 131.2094 V 31.0117
G01 X 352.7743 Y 35.7720 U 131.5030 V 30.9587
G01 X 353.4681 Y 35.6943 U 131.7966 V 30.9049
G01 X 354.1618 Y 35.6151 U 132.0900 V 30.8504
G01 X 354.8553 Y 35.5341 U 132.3832 V 30.7950
G01 X 355.5485 Y 35.4514 U 132.6763 V 30.7387
G01 X 356.2416 Y 35.3668 U 132.9691 V 30.6814
G01 X 356.9344 Y 35.2802 U 133.2618 V 30.6231
G01 X 357.6269 Y 35.1916 U 133.5542 V 30.5638
G01 X 358.3192 Y 35.1010 U 133.8465 V 30.5034
G01 X 359.0112 Y 35.0083 U 134.1386 V 30.4422
G01 X 359.7030 Y 34.9140 U 134.4304 V 30.3801
G01 X 360.3945 Y 34.8181 U 134.7222 V 30.3172
G01 X 361.0859 Y 34.7210 U 135.0137 V 30.2535
G01 X 361.7771 Y 34.6223 U 135.3050 V 30.1889
G01 X 362.4680 Y 34.5217 U 135.5961 V 30.1233
G01 X 363.1585 Y 34.4188 U 135.8870 V 30.0567
G01 X 363.8487 Y 34.3134 U 136.1777 V 29.9893
G01 X 364.5385 Y 34.2055 U 136.4682 V 29.9208
G01 X 365.2280 Y 34.0957 U 136.7584 V 29.8513
G01 X 365.9172 Y 33.9844 U 137.0483 V 29.7806
G01 X 366.6063 Y 33.8720 U 137.3379 V 29.7087
G01 X 367.2952 Y 33.7583 U 137.6273 V 29.6356
G01 X 367.9837 Y 33.6427 U 137.9163 V 29.5614
G01 X 368.6718 Y 33.5246 U 138.2051 V 29.4861
G01 X 369.3595 Y 33.4036 U 138.4936 V 29.4101
G01 X 370.0466 Y 33.2800 U 138.7819 V 29.3331
G01 X 370.7334 Y 33.1542 U 139.0700 V 29.2553
G01 X 371.4198 Y 33.0266 U 139.3579 V 29.1765
G01 X 372.1059 Y 32.8975 U 139.6454 V 29.0967
G01 X 372.7917 Y 32.7668 U 139.9326 V 29.0158
G01 X 373.4772 Y 32.6341 U 140.2195 V 28.9337
G01 X 374.1622 Y 32.4993 U 140.5061 V 28.8504
G01 X 374.8468 Y 32.3620 U 140.7923 V 28.7660
G01 X 375.5309 Y 32.2224 U 141.0782 V 28.6805
G01 X 376.2145 Y 32.0808 U 141.3638 V 28.5939
G01 X 376.8978 Y 31.9374 U 141.6491 V 28.5064
G01 X 377.5808 Y 31.7924 U 141.9341 V 28.4180
G01 X 378.2634 Y 31.6455 U 142.2188 V 28.3285
G01 X 378.9455 Y 31.4966 U 142.5030 V 28.2376
G01 X 379.6270 Y 31.3453 U 142.7867 V 28.1451
G01 X 380.3080 Y 31.1913 U 143.0698 V 28.0506
G01 X 380.9884 Y 31.0347 U 143.3522 V 27.9542
G01 X 381.6682 Y 30.8753 U 143.6340 V 27.8559
G01 X 382.3473 Y 30.7132 U 143.9151 V 27.7558
G01 X 383.0257 Y 30.5483 U 144.1956 V 27.6539
G01 X 383.7033 Y 30.3802 U 144.4754 V 27.5503
G01 X 384.3801 Y 30.2084 U 144.7546 V 27.4449
G01 X 385.0557 Y 30.0327 U 145.0330 V 27.3376
G01 X 385.7303 Y 29.8527 U 145.3108 V 27.2284
G01 X 386.4038 Y 29.6687 U 145.5877 V 27.1172
G01 X 387.0763 Y 29.4810 U 145.8638 V 27.0039
G01 X 387.7478 Y 29.2899 U 146.1389 V 26.8884
G01 X 388.4183 Y 29.0953 U 146.4130 V 26.7705
G01 X 389.0877 Y 28.8969 U 146.6861 V 26.6501
G01 X 389.7558 Y 28.6940 U 146.9581 V 26.5273
G01 X 390.4224 Y 28.4864 U 147.2291 V 26.4023
G01 X 391.0873 Y 28.2736 U 147.4991 V 26.2754
G01 X 391.7506 Y 28.0558 U 147.7682 V 26.1464
G01 X 392.4123 Y 27.8328 U 148.0364 V 26.0155
G01 X 393.0722 Y 27.6050 U 148.3034 V 25.8823
G01 X 393.7304 Y 27.3722 U 148.5694 V 25.7470
G01 X 394.3869 Y 27.1346 U 148.8341 V 25.6093
G01 X 395.0417 Y 26.8922 U 149.0976 V 25.4692
G01 X 395.6947 Y 26.6451 U 149.3598 V 25.3266
G01 X 396.3459 Y 26.3934 U 149.6206 V 25.1816
G01 X 396.9952 Y 26.1367 U 149.8799 V 25.0339
G01 X 397.6424 Y 25.8750 U 150.1378 V 24.8837
G01 X 398.2875 Y 25.6080 U 150.3941 V 24.7310
G01 X 398.9303 Y 25.3355 U 150.6489 V 24.5756
G01 X 399.5706 Y 25.0572 U 150.9019 V 24.4174
G01 X 400.2083 Y 24.7728 U 151.1531 V 24.2563
G01 X 400.8430 Y 24.4820 U 151.4023 V 24.0921
G01 X 401.4748 Y 24.1849 U 151.6492 V 23.9246
G01 X 402.1035 Y 23.8813 U 151.8936 V 23.7533
G01 X 402.7291 Y 23.5713 U 152.1347 V 23.5775
G01 X 403.3514 Y 23.2547 U 152.3718 V 23.3963
G01 X 403.9697 Y 22.9305 U 152.6042 V 23.2091
G01 X 404.5830 Y 22.5969 U 152.8298 V 23.0138
G01 X 405.1902 Y 22.2522 U 153.0475 V 22.8098
G01 X 405.7899 Y 21.8948 U 153.2565 V 22.5968
G01 X 406.3788 Y 21.5198 U 153.4549 V 22.3740
G01 X 406.9523 Y 21.1216 U 153.6453 V 22.1443
G01 X 407.5057 Y 20.6960 U 153.8281 V 21.9083
G01 X 408.0353 Y 20.2412 U 154.0024 V 21.6662
G01 X 408.5432 Y 19.7623 U 154.1682 V 21.4181
G01 X 409.0332 Y 19.2650 U 154.3294 V 21.1670
G01 X 409.5092 Y 18.7543 U 154.4831 V 20.9113
G01 X 409.9649 Y 18.2255 U 154.6124 V 20.6425
G01 X 410.3745 Y 17.6606 U 154.7143 V 20.3622
G01 X 410.7260 Y 17.0579 U 154.7931 V 20.0744
G01 X 410.9947 Y 16.4141 U 154.8540 V 19.7824
G01 X 411.1733 Y 15.7396 U 154.8989 V 19.4874
G01 X 411.3215 Y 15.0577 U 154.9396 V 19.1919
G01 X 411.1702 Y 13.9637 U 154.8789 V 18.6575
G01 X 410.9739 Y 13.3016 U 154.8178 V 18.3689
G01 X 410.6675 Y 12.6834 U 154.7409 V 18.0841
G01 X 410.2653 Y 12.1228 U 154.6456 V 17.8050
G01 X 409.7906 Y 11.6213 U 154.5244 V 17.5362
G01 X 409.2713 Y 11.1655 U 154.3727 V 17.2835
G01 X 408.7244 Y 10.7433 U 154.1954 V 17.0478
G01 X 408.1503 Y 10.3587 U 154.0033 V 16.8239
G01 X 407.5492 Y 10.0181 U 153.8009 V 16.6094
G01 X 406.9278 Y 9.7160 U 153.5879 V 16.4052
G01 X 406.2899 Y 9.4504 U 153.3644 V 16.2127
G01 X 405.6399 Y 9.2156 U 153.1308 V 16.0325
G01 X 404.9814 Y 9.0060 U 152.8878 V 15.8654
G01 X 404.3170 Y 8.8157 U 152.6353 V 15.7128
G01 X 403.6484 Y 8.6407 U 152.3758 V 15.5726
G01 X 402.9771 Y 8.4763 U 152.1088 V 15.4470
G01 X 402.3044 Y 8.3180 U 151.8373 V 15.3318
G01 X 401.6308 Y 8.1634 U 151.5618 V 15.2263
G01 X 400.9563 Y 8.0126 U 151.2833 V 15.1289
G01 X 400.2808 Y 7.8662 U 151.0029 V 15.0371
G01 X 399.6044 Y 7.7244 U 150.7210 V 14.9500
G01 X 398.9270 Y 7.5873 U 150.4380 V 14.8666
G01 X 398.2487 Y 7.4545 U 150.1542 V 14.7859
G01 X 397.5697 Y 7.3256 U 149.8698 V 14.7073
G01 X 396.8900 Y 7.2000 U 149.5849 V 14.6309
G01 X 396.2098 Y 7.0778 U 149.2994 V 14.5565
G01 X 395.5289 Y 6.9590 U 149.0133 V 14.4843
G01 X 394.8475 Y 6.8437 U 148.7267 V 14.4143
G01 X 394.1654 Y 6.7320 U 148.4396 V 14.3465
G01 X 393.4828 Y 6.6238 U 148.1519 V 14.2808
G01 X 392.7997 Y 6.5187 U 147.8638 V 14.2173
G01 X 392.1161 Y 6.4164 U 147.5753 V 14.1558
G01 X 391.4322 Y 6.3167 U 147.2863 V 14.0962
G01 X 390.7480 Y 6.2195 U 146.9970 V 14.0384
G01 X 390.0633 Y 6.1247 U 146.7073 V 13.9825
G01 X 389.3784 Y 6.0326 U 146.4173 V 13.9284
G01 X 388.6930 Y 5.9432 U 146.1269 V 13.8759
G01 X 388.0074 Y 5.8563 U 145.8363 V 13.8252
G01 X 387.3214 Y 5.7716 U 145.5454 V 13.7760
G01 X 386.6353 Y 5.6887 U 145.2542 V 13.7283
G01 X 385.9490 Y 5.6072 U 144.9628 V 13.6821
G01 X 385.2624 Y 5.5274 U 144.6712 V 13.6372
G01 X 384.5757 Y 5.4493 U 144.3794 V 13.5936
G01 X 383.8887 Y 5.3735 U 144.0874 V 13.5513
G01 X 383.2015 Y 5.3001 U 143.7953 V 13.5102
G01 X 382.5140 Y 5.2291 U 143.5029 V 13.4702
G01 X 381.8263 Y 5.1602 U 143.2105 V 13.4312
G01 X 381.1384 Y 5.0930 U 142.9179 V 13.3932
G01 X 380.4504 Y 5.0273 U 142.6252 V 13.3562
G01 X 379.7623 Y 4.9630 U 142.3323 V 13.3205
G01 X 379.0740 Y 4.9000 U 142.0393 V 13.2863
G01 X 378.3856 Y 4.8383 U 141.7461 V 13.2536
G01 X 377.6971 Y 4.7778 U 141.4527 V 13.2224
G01 X 377.0085 Y 4.7187 U 141.1592 V 13.1923
G01 X 376.3198 Y 4.6609 U 140.8656 V 13.1629
G01 X 375.6310 Y 4.6044 U 140.5720 V 13.1340
G01 X 374.9420 Y 4.5494 U 140.2783 V 13.1057
G01 X 374.2529 Y 4.4957 U 139.9846 V 13.0779
G01 X 373.5638 Y 4.4434 U 139.6908 V 13.0508
G01 X 372.8745 Y 4.3923 U 139.3969 V 13.0245
G01 X 372.1852 Y 4.3424 U 139.1030 V 12.9989
G01 X 371.4958 Y 4.2938 U 138.8090 V 12.9741
G01 X 370.8062 Y 4.2464 U 138.5150 V 12.9501
G01 X 370.1166 Y 4.2004 U 138.2208 V 12.9269
G01 X 369.4269 Y 4.1558 U 137.9266 V 12.9044
G01 X 368.7371 Y 4.1125 U 137.6324 V 12.8828
G01 X 368.0473 Y 4.0706 U 137.3381 V 12.8620
G01 X 367.3573 Y 4.0298 U 137.0437 V 12.8420
G01 X 366.6673 Y 3.9902 U 136.7493 V 12.8228
G01 X 365.9772 Y 3.9516 U 136.4549 V 12.8044
G01 X 365.2871 Y 3.9139 U 136.1604 V 12.7867
G01 X 364.5970 Y 3.8770 U 135.8658 V 12.7699
G01 X 363.9068 Y 3.8407 U 135.5712 V 12.7537
G01 X 363.2166 Y 3.8050 U 135.2766 V 12.7382
G01 X 362.5263 Y 3.7699 U 134.9819 V 12.7233
G01 X 361.8360 Y 3.7355 U 134.6872 V 12.7089
G01 X 361.1457 Y 3.7018 U 134.3925 V 12.6950
G01 X 360.4553 Y 3.6687 U 134.0978 V 12.6815
G01 X 359.7650 Y 3.6362 U 133.8030 V 12.6684
G01 X 359.0745 Y 3.6042 U 133.5083 V 12.6558
G01 X 358.3841 Y 3.5726 U 133.2135 V 12.6435
G01 X 357.6937 Y 3.5414 U 132.9187 V 12.6315
G01 X 357.0032 Y 3.5106 U 132.6239 V 12.6200
G01 X 356.3127 Y 3.4804 U 132.3290 V 12.6089
G01 X 355.6222 Y 3.4506 U 132.0342 V 12.5983
G01 X 354.9317 Y 3.4212 U 131.7393 V 12.5881
G01 X 354.2412 Y 3.3923 U 131.4445 V 12.5782
G01 X 353.5506 Y 3.3636 U 131.1496 V 12.5687
G01 X 352.8601 Y 3.3351 U 130.8547 V 12.5594
G01 X 352.1695 Y 3.3069 U 130.5598 V 12.5504
G01 X 351.4789 Y 3.2788 U 130.2649 V 12.5417
G01 X 350.7883 Y 3.2507 U 129.9700 V 12.5330
G01 X 350.0978 Y 3.2227 U 129.6750 V 12.5245
G01 X 349.4072 Y 3.1949 U 129.3801 V 12.5162
G01 X 348.7166 Y 3.1676 U 129.0852 V 12.5082
G01 X 348.0260 Y 3.1408 U 128.7903 V 12.5004
G01 X 347.3353 Y 3.1149 U 128.4953 V 12.4930
G01 X 346.6446 Y 3.0897 U 128.2004 V 12.4859
G01 X 345.9539 Y 3.0651 U 127.9054 V 12.4791
G01 X 345.2632 Y 3.0411 U 127.6104 V 12.4726
G01 X 344.5724 Y 3.0173 U 127.3155 V 12.4662
G01 X 343.8817 Y 2.9940 U 127.0205 V 12.4600
G01 X 343.1909 Y 2.9712 U 126.7255 V 12.4541
G01 X 342.5001 Y 2.9489 U 126.4305 V 12.4485
G01 X 341.8093 Y 2.9272 U 126.1355 V 12.4434
G01 X 341.1185 Y 2.9060 U 125.8405 V 12.4387
G01 X 340.4277 Y 2.8849 U 125.5455 V 12.4343
G01 X 339.7369 Y 2.8636 U 125.2505 V 12.4303
G01 X 339.0461 Y 2.8419 U 124.9555 V 12.4266
G01 X 338.3553 Y 2.8202 U 124.6605 V 12.4230
G01 X 337.6644 Y 2.7988 U 124.3655 V 12.4197
G01 X 336.9736 Y 2.7783 U 124.0704 V 12.4166
G01 X 336.2827 Y 2.7591 U 123.7754 V 12.4136
G01 X 335.5918 Y 2.7409 U 123.4804 V 12.4107
G01 X 334.9009 Y 2.7235 U 123.1854 V 12.4079
G01 X 334.2099 Y 2.7064 U 122.8903 V 12.4054
G01 X 333.5190 Y 2.6893 U 122.5953 V 12.4033
G01 X 332.8281 Y 2.6723 U 122.3003 V 12.4015
G01 X 332.1371 Y 2.6553 U 122.0052 V 12.4000
G01 X 331.4462 Y 2.6387 U 121.7102 V 12.3990
G01 X 330.7552 Y 2.6225 U 121.4152 V 12.3982
G01 X 330.0643 Y 2.6069 U 121.1201 V 12.3977
G01 X 329.3733 Y 2.5919 U 120.8251 V 12.3975
G01 X 328.6823 Y 2.5776 U 120.5301 V 12.3975
G01 X 327.9913 Y 2.5641 U 120.2350 V 12.3977
G01 X 327.3002 Y 2.5513 U 119.9400 V 12.3981
G01 X 326.6092 Y 2.5390 U 119.6449 V 12.3986
G01 X 325.9182 Y 2.5271 U 119.3499 V 12.3995
G01 X 325.2271 Y 2.5154 U 119.0549 V 12.4007
G01 X 324.5361 Y 2.5038 U 118.7598 V 12.4023
G01 X 323.8450 Y 2.4922 U 118.4648 V 12.4043
G01 X 323.1540 Y 2.4803 U 118.1698 V 12.4065
G01 X 322.4629 Y 2.4681 U 117.8747 V 12.4089
G01 X 321.7719 Y 2.4559 U 117.5797 V 12.4115
G01 X 321.0809 Y 2.4441 U 117.2847 V 12.4142
G01 X 320.3898 Y 2.4333 U 116.9897 V 12.4170
G01 X 319.6987 Y 2.4237 U 116.6946 V 12.4199
G01 X 319.0076 Y 2.4153 U 116.3996 V 12.4229
G01 X 318.3165 Y 2.4075 U 116.1046 V 12.4260
G01 X 317.6254 Y 2.4001 U 115.8096 V 12.4294
G01 X 316.9343 Y 2.3926 U 115.5146 V 12.4331
G01 X 316.2432 Y 2.3852 U 115.2196 V 12.4374
G01 X 315.5521 Y 2.3778 U 114.9246 V 12.4422
G01 X 314.8610 Y 2.3705 U 114.6296 V 12.4476
G01 X 314.1699 Y 2.3635 U 114.3346 V 12.4532
G01 X 313.4788 Y 2.3567 U 114.0396 V 12.4590
G01 X 312.7877 Y 2.3503 U 113.7446 V 12.4649
G01 X 312.0965 Y 2.3444 U 113.4496 V 12.4708
G01 X 311.4054 Y 2.3390 U 113.1547 V 12.4769
G01 X 310.7143 Y 2.3340 U 112.8597 V 12.4829
G01 X 310.0232 Y 2.3295 U 112.5647 V 12.4891
G01 X 309.3320 Y 2.3253 U 112.2697 V 12.4954
G01 X 308.6409 Y 2.3214 U 111.9748 V 12.5020
G01 X 307.9498 Y 2.3176 U 111.6798 V 12.5088
G01 X 307.2586 Y 2.3138 U 111.3849 V 12.5160
G01 X 306.5675 Y 2.3098 U 111.0899 V 12.5235
G01 X 305.8763 Y 2.3055 U 110.7950 V 12.5312
G01 X 305.1852 Y 2.3013 U 110.5001 V 12.5390
G01 X 304.4941 Y 2.2975 U 110.2051 V 12.5470
G01 X 303.8029 Y 2.2944 U 109.9102 V 12.5552
G01 X 303.1118 Y 2.2924 U 109.6153 V 12.5635
G01 X 302.4207 Y 2.2911 U 109.3204 V 12.5718
G01 X 301.7295 Y 2.2903 U 109.0254 V 12.5803
G01 X 301.0384 Y 2.2894 U 108.7305 V 12.5888
G01 X 300.3472 Y 2.2882 U 108.4356 V 12.5975
G01 X 299.6561 Y 2.2868 U 108.1407 V 12.6065
G01 X 298.9649 Y 2.2854 U 107.8458 V 12.6159
G01 X 298.2738 Y 2.2843 U 107.5509 V 12.6257
G01 X 297.5826 Y 2.2838 U 107.2561 V 12.6357
G01 X 296.8915 Y 2.2835 U 106.9612 V 12.6458
G01 X 296.2003 Y 2.2834 U 106.6663 V 12.6559
G01 X 295.5092 Y 2.2831 U 106.3715 V 12.6659
G01 X 294.8181 Y 2.2825 U 106.0766 V 12.6758
G01 X 294.1269 Y 2.2818 U 105.7817 V 12.6858
G01 X 293.4358 Y 2.2813 U 105.4869 V 12.6960
G01 X 292.7446 Y 2.2814 U 105.1920 V 12.7063
G01 X 292.0535 Y 2.2823 U 104.8972 V 12.7169
G01 X 291.3623 Y 2.2837 U 104.6023 V 12.7279
G01 X 290.6712 Y 2.2855 U 104.3075 V 12.7391
G01 X 289.9800 Y 2.2872 U 104.0127 V 12.7507
G01 X 289.2889 Y 2.2886 U 103.7179 V 12.7624
G01 X 288.5978 Y 2.2898 U 103.4231 V 12.7742
G01 X 287.9066 Y 2.2911 U 103.1283 V 12.7859
G01 X 287.2155 Y 2.2927 U 102.8335 V 12.7976
G01 X 286.5243 Y 2.2947 U 102.5387 V 12.8094
G01 X 285.8332 Y 2.2970 U 102.2439 V 12.8213
G01 X 285.1420 Y 2.2995 U 101.9491 V 12.8333
G01 X 284.4509 Y 2.3019 U 101.6543 V 12.8455
G01 X 283.7598 Y 2.3041 U 101.3595 V 12.8579
G01 X 283.0686 Y 2.3062 U 101.0647 V 12.8703
G01 X 282.3775 Y 2.3084 U 100.7700 V 12.8827
G01 X 281.6863 Y 2.3107 U 100.4752 V 12.8951
G01 X 280.9952 Y 2.3134 U 100.1804 V 12.9076
G01 X 280.3041 Y 2.3163 U 99.8856 V 12.9200
G01 X 279.6129 Y 2.3197 U 99.5909 V 12.9326
G01 X 278.9218 Y 2.3234 U 99.2961 V 12.9453
G01 X 278.2306 Y 2.3274 U 99.0013 V 12.9582
G01 X 277.5395 Y 2.3317 U 98.7066 V 12.9713
G01 X 276.8484 Y 2.3358 U 98.4119 V 12.9848
G01 X 276.1572 Y 2.3396 U 98.1172 V 12.9987
G01 X 275.4661 Y 2.3430 U 97.8225 V 13.0129
G01 X 274.7750 Y 2.3460 U 97.5278 V 13.0270
G01 X 274.0838 Y 2.3490 U 97.2330 V 13.0408
G01 X 273.3927 Y 2.3522 U 96.9383 V 13.0543
G01 X 272.7016 Y 2.3559 U 96.6436 V 13.0674
G01 X 272.0104 Y 2.3599 U 96.3488 V 13.0804
G01 X 271.3193 Y 2.3641 U 96.0541 V 13.0935
G01 X 270.6282 Y 2.3683 U 95.7593 V 13.1067
G01 X 269.9370 Y 2.3724 U 95.4646 V 13.1202
G01 X 269.2459 Y 2.3764 U 95.1699 V 13.1339
G01 X 268.5548 Y 2.3804 U 94.8752 V 13.1478
G01 X 267.8636 Y 2.3845 U 94.5805 V 13.1620
G01 X 267.1725 Y 2.3887 U 94.2858 V 13.1763
G01 X 266.4814 Y 2.3929 U 93.9911 V 13.1906
G01 X 265.7902 Y 2.3969 U 93.6964 V 13.2048
G01 X 265.0991 Y 2.4008 U 93.4017 V 13.2188
G01 X 264.4079 Y 2.4045 U 93.1070 V 13.2326
G01 X 263.7168 Y 2.4082 U 92.8122 V 13.2463
G01 X 263.0257 Y 2.4122 U 92.5175 V 13.2601
G01 X 262.3345 Y 2.4168 U 92.2228 V 13.2741
G01 X 261.6434 Y 2.4223 U 91.9281 V 13.2883
G01 X 260.9523 Y 2.4283 U 91.6334 V 13.3026
G01 X 260.2612 Y 2.4343 U 91.3387 V 13.3171
G01 X 259.5701 Y 2.4400 U 91.0441 V 13.3317
G01 X 258.8789 Y 2.4450 U 90.7494 V 13.3463
G01 X 258.1878 Y 2.4497 U 90.4547 V 13.3611
G01 X 257.4967 Y 2.4544 U 90.1601 V 13.3759
G01 X 256.8056 Y 2.4597 U 89.8654 V 13.3907
G01 X 256.1144 Y 2.4659 U 89.5707 V 13.4056
G01 X 255.4233 Y 2.4726 U 89.2761 V 13.4204
G01 X 254.7322 Y 2.4796 U 88.9814 V 13.4354
G01 X 254.0411 Y 2.4867 U 88.6868 V 13.4507
G01 X 253.3500 Y 2.4936 U 88.3921 V 13.4663
G01 X 252.6589 Y 2.5002 U 88.0975 V 13.4821
G01 X 251.9678 Y 2.5067 U 87.8029 V 13.4981
G01 X 251.2766 Y 2.5131 U 87.5083 V 13.5142
G01 X 250.5855 Y 2.5194 U 87.2137 V 13.5301
G01 X 249.8944 Y 2.5258 U 86.9191 V 13.5460
G01 X 249.2033 Y 2.5325 U 86.6245 V 13.5619
G01 X 248.5122 Y 2.5397 U 86.3299 V 13.5777
G01 X 247.8211 Y 2.5474 U 86.0353 V 13.5936
G01 X 247.1300 Y 2.5556 U 85.7407 V 13.6096
G01 X 246.4389 Y 2.5644 U 85.4461 V 13.6256
G01 X 245.7478 Y 2.5736 U 85.1515 V 13.6418
G01 X 245.0567 Y 2.5832 U 84.8569 V 13.6583
G01 X 244.3657 Y 2.5932 U 84.5623 V 13.6750
G01 X 243.6746 Y 2.6036 U 84.2678 V 13.6920
G01 X 242.9835 Y 2.6142 U 83.9733 V 13.7095
G01 X 242.2925 Y 2.6251 U 83.6788 V 13.7273
G01 X 241.6014 Y 2.6362 U 83.3843 V 13.7454
G01 X 240.9104 Y 2.6473 U 83.0898 V 13.7637
G01 X 240.2193 Y 2.6584 U 82.7953 V 13.7822
G01 X 239.5282 Y 2.6693 U 82.5009 V 13.8006
G01 X 238.8372 Y 2.6802 U 82.2064 V 13.8191
G01 X 238.1461 Y 2.6912 U 81.9120 V 13.8375
G01 X 237.4551 Y 2.7023 U 81.6175 V 13.8560
G01 X 236.7640 Y 2.7136 U 81.3230 V 13.8744
G01 X 236.0730 Y 2.7253 U 81.0286 V 13.8928
G01 X 235.3819 Y 2.7375 U 80.7341 V 13.9113
G01 X 234.6909 Y 2.7501 U 80.4397 V 13.9300
G01 X 233.9999 Y 2.7633 U 80.1452 V 13.9489
G01 X 233.3089 Y 2.7769 U 79.8508 V 13.9681
G01 X 232.6179 Y 2.7907 U 79.5564 V 13.9875
G01 X 231.9269 Y 2.8047 U 79.2620 V 14.0072
G01 X 231.2359 Y 2.8188 U 78.9677 V 14.0271
G01 X 230.5449 Y 2.8330 U 78.6733 V 14.0472
G01 X 229.8539 Y 2.8476 U 78.3790 V 14.0677
G01 X 229.1629 Y 2.8627 U 78.0847 V 14.0884
G01 X 228.4719 Y 2.8784 U 77.7904 V 14.1094
G01 X 227.7810 Y 2.8946 U 77.4961 V 14.1306
G01 X 227.0900 Y 2.9112 U 77.2019 V 14.1519
G01 X 226.3991 Y 2.9280 U 76.9076 V 14.1735
G01 X 225.7081 Y 2.9449 U 76.6134 V 14.1951
G01 X 225.0172 Y 2.9619 U 76.3191 V 14.2168
G01 X 224.3263 Y 2.9791 U 76.0249 V 14.2386
G01 X 223.6353 Y 2.9964 U 75.7307 V 14.2606
G01 X 222.9444 Y 3.0139 U 75.4365 V 14.2826
G01 X 222.2535 Y 3.0317 U 75.1422 V 14.3047
G01 X 221.5626 Y 3.0499 U 74.8480 V 14.3270
G01 X 220.8717 Y 3.0685 U 74.5539 V 14.3494
G01 X 220.1808 Y 3.0877 U 74.2597 V 14.3720
G01 X 219.4899 Y 3.1073 U 73.9655 V 14.3948
G01 X 218.7991 Y 3.1272 U 73.6714 V 14.4178
G01 X 218.1082 Y 3.1473 U 73.3773 V 14.4411
G01 X 217.4174 Y 3.1676 U 73.0832 V 14.4647
G01 X 216.7265 Y 3.1880 U 72.7891 V 14.4886
G01 X 216.0357 Y 3.2086 U 72.4951 V 14.5127
G01 X 215.3449 Y 3.2295 U 72.2010 V 14.5371
G01 X 214.6541 Y 3.2506 U 71.9070 V 14.5614
G01 X 213.9632 Y 3.2719 U 71.6130 V 14.5856
G01 X 213.2724 Y 3.2935 U 71.3189 V 14.6098
G01 X 212.5816 Y 3.3154 U 71.0249 V 14.6340
G01 X 211.8908 Y 3.3374 U 70.7308 V 14.6584
G01 X 211.2000 Y 3.3597 U 70.4368 V 14.6830
G01 X 210.5093 Y 3.3821 U 70.1428 V 14.7080
G01 X 209.8185 Y 3.4048 U 69.8489 V 14.7332
G01 X 209.1277 Y 3.4277 U 69.5549 V 14.7585
G01 X 208.4370 Y 3.4508 U 69.2610 V 14.7839
G01 X 207.7462 Y 3.4741 U 68.9671 V 14.8094
G01 X 207.0555 Y 3.4976 U 68.6731 V 14.8349
G01 X 206.3647 Y 3.5213 U 68.3792 V 14.8605
G01 X 205.6740 Y 3.5452 U 68.0853 V 14.8863
G01 X 204.9833 Y 3.5693 U 67.7914 V 14.9122
G01 X 204.2926 Y 3.5936 U 67.4975 V 14.9383
G01 X 203.6018 Y 3.6181 U 67.2036 V 14.9645
G01 X 202.9111 Y 3.6429 U 66.9098 V 14.9908
G01 X 202.2204 Y 3.6679 U 66.6159 V 15.0172
G01 X 201.5298 Y 3.6932 U 66.3221 V 15.0436
G01 X 200.8391 Y 3.7187 U 66.0282 V 15.0701
G01 X 200.1484 Y 3.7445 U 65.7344 V 15.0968
G01 X 199.4578 Y 3.7704 U 65.4406 V 15.1236
G01 X 198.7671 Y 3.7965 U 65.1468 V 15.1505
G01 X 198.0765 Y 3.8228 U 64.8530 V 15.1774
G01 X 197.3858 Y 3.8493 U 64.5592 V 15.2045
G01 X 196.6952 Y 3.8760 U 64.2654 V 15.2316
G01 X 196.0046 Y 3.9030 U 63.9716 V 15.2588
G01 X 195.3140 Y 3.9302 U 63.6778 V 15.2862
G01 X 194.6234 Y 3.9576 U 63.3841 V 15.3139
G01 X 193.9328 Y 3.9853 U 63.0904 V 15.3419
G01 X 193.2422 Y 4.0131 U 62.7967 V 15.3701
G01 X 192.5516 Y 4.0411 U 62.5030 V 15.3985
G01 X 191.8610 Y 4.0693 U 62.2094 V 15.4269
G01 X 191.1705 Y 4.0977 U 61.9157 V 15.4552
G01 X 190.4799 Y 4.1264 U 61.6220 V 15.4834
G01 X 189.7894 Y 4.1553 U 61.3283 V 15.5117
G01 X 189.0989 Y 4.1844 U 61.0346 V 15.5400
G01 X 188.4083 Y 4.2138 U 60.7410 V 15.5686
G01 X 187.7178 Y 4.2433 U 60.4474 V 15.5975
G01 X 187.0273 Y 4.2731 U 60.1538 V 15.6266
G01 X 186.3368 Y 4.3030 U 59.8602 V 15.6560
G01 X 185.6463 Y 4.3332 U 59.5666 V 15.6856
G01 X 184.9559 Y 4.3637 U 59.2731 V 15.7153
G01 X 184.2654 Y 4.3945 U 58.9796 V 15.7450
G01 X 183.5750 Y 4.4254 U 58.6860 V 15.7747
G01 X 182.8845 Y 4.4566 U 58.3925 V 15.8042
G01 X 182.1941 Y 4.4879 U 58.0989 V 15.8336
G01 X 181.5036 Y 4.5193 U 57.8053 V 15.8629
G01 X 180.8132 Y 4.5509 U 57.5118 V 15.8925
G01 X 180.1228 Y 4.5829 U 57.2183 V 15.9225
G01 X 179.4324 Y 4.6154 U 56.9248 V 15.9530
G01 X 178.7421 Y 4.6485 U 56.6314 V 15.9840
G01 X 178.0517 Y 4.6820 U 56.3380 V 16.0152
G01 X 177.3614 Y 4.7158 U 56.0446 V 16.0465
G01 X 176.6711 Y 4.7499 U 55.7513 V 16.0778
G01 X 175.9808 Y 4.7841 U 55.4579 V 16.1091
G01 X 175.2905 Y 4.8184 U 55.1645 V 16.1405
G01 X 174.6003 Y 4.8530 U 54.8712 V 16.1718
G01 X 173.9100 Y 4.8879 U 54.5778 V 16.2032
G01 X 173.2197 Y 4.9230 U 54.2844 V 16.2347
G01 X 172.5295 Y 4.9583 U 53.9911 V 16.2663
G01 X 171.8393 Y 4.9938 U 53.6978 V 16.2983
G01 X 171.1490 Y 5.0293 U 53.4045 V 16.3306
G01 X 170.4588 Y 5.0650 U 53.1113 V 16.3632
G01 X 169.7686 Y 5.1009 U 52.8181 V 16.3959
G01 X 169.0784 Y 5.1372 U 52.5249 V 16.4286
G01 X 168.3882 Y 5.1740 U 52.2316 V 16.4611
G01 X 167.6981 Y 5.2113 U 51.9384 V 16.4935
G01 X 167.0080 Y 5.2491 U 51.6451 V 16.5259
G01 X 166.3179 Y 5.2874 U 51.3519 V 16.5587
G01 X 165.6278 Y 5.3262 U 51.0588 V 16.5921
G01 X 164.9378 Y 5.3653 U 50.7657 V 16.6262
G01 X 164.2478 Y 5.4049 U 50.4727 V 16.6606
G01 X 163.5578 Y 5.4447 U 50.1797 V 16.6952
G01 X 162.8678 Y 5.4846 U 49.8866 V 16.7296
G01 X 162.1778 Y 5.5247 U 49.5936 V 16.7638
G01 X 161.4879 Y 5.5651 U 49.3005 V 16.7979
G01 X 160.7979 Y 5.6059 U 49.0075 V 16.8321
G01 X 160.1080 Y 5.6471 U 48.7145 V 16.8667
G01 X 159.4181 Y 5.6888 U 48.4215 V 16.9018
G01 X 158.7283 Y 5.7309 U 48.1286 V 16.9372
G01 X 158.0384 Y 5.7734 U 47.8358 V 16.9729
G01 X 157.3486 Y 5.8161 U 47.5429 V 17.0087
G01 X 156.6588 Y 5.8589 U 47.2500 V 17.0445
G01 X 155.9690 Y 5.9018 U 46.9572 V 17.0803
G01 X 155.2792 Y 5.9449 U 46.6643 V 17.1161
G01 X 154.5894 Y 5.9880 U 46.3715 V 17.1520
G01 X 153.8996 Y 6.0314 U 46.0786 V 17.1879
G01 X 153.2098 Y 6.0751 U 45.7858 V 17.2240
G01 X 152.5201 Y 6.1193 U 45.4930 V 17.2603
G01 X 151.8304 Y 6.1644 U 45.2003 V 17.2969
G01 X 151.1408 Y 6.2102 U 44.9075 V 17.3339
G01 X 150.4512 Y 6.2567 U 44.6149 V 17.3713
G01 X 149.7616 Y 6.3036 U 44.3222 V 17.4088
G01 X 149.0721 Y 6.3506 U 44.0296 V 17.4464
G01 X 148.3826 Y 6.3976 U 43.7370 V 17.4839
G01 X 147.6930 Y 6.4449 U 43.4443 V 17.5215
G01 X 147.0035 Y 6.4923 U 43.1517 V 17.5592
G01 X 146.3140 Y 6.5401 U 42.8591 V 17.5971
G01 X 145.6246 Y 6.5883 U 42.5666 V 17.6353
G01 X 144.9351 Y 6.6366 U 42.2741 V 17.6739
G01 X 144.2456 Y 6.6848 U 41.9816 V 17.7126
G01 X 143.5562 Y 6.7328 U 41.6891 V 17.7512
G01 X 142.8667 Y 6.7807 U 41.3965 V 17.7897
G01 X 142.1772 Y 6.8286 U 41.1040 V 17.8279
G01 X 141.4877 Y 6.8770 U 40.8114 V 17.8659
G01 X 140.7984 Y 6.9261 U 40.5189 V 17.9041
G01 X 140.1090 Y 6.9762 U 40.2263 V 17.9425
G01 X 139.4197 Y 7.0269 U 39.9339 V 17.9813
G01 X 138.7305 Y 7.0781 U 39.6414 V 18.0205
G01 X 138.0413 Y 7.1296 U 39.3490 V 18.0599
G01 X 137.3521 Y 7.1813 U 39.0567 V 18.0996
G01 X 136.6628 Y 7.2329 U 38.7643 V 18.1395
G01 X 135.9736 Y 7.2845 U 38.4720 V 18.1794
G01 X 135.2844 Y 7.3360 U 38.1797 V 18.2195
G01 X 134.5952 Y 7.3873 U 37.8874 V 18.2594
G01 X 133.9059 Y 7.4387 U 37.5951 V 18.2994
G01 X 133.2167 Y 7.4904 U 37.3027 V 18.3392
G01 X 132.5275 Y 7.5426 U 37.0104 V 18.3792
G01 X 131.8384 Y 7.5953 U 36.7181 V 18.4194
G01 X 131.1493 Y 7.6486 U 36.4259 V 18.4598
G01 X 130.4603 Y 7.7024 U 36.1336 V 18.5004
G01 X 129.7713 Y 7.7567 U 35.8415 V 18.5413
G01 X 129.0823 Y 7.8114 U 35.5493 V 18.5823
G01 X 128.3933 Y 7.8666 U 35.2571 V 18.6234
G01 X 127.7044 Y 7.9219 U 34.9650 V 18.6646
G01 X 127.0155 Y 7.9775 U 34.6728 V 18.7059
G01 X 126.3266 Y 8.0332 U 34.3807 V 18.7473
G01 X 125.6377 Y 8.0890 U 34.0886 V 18.7887
G01 X 124.9489 Y 8.1450 U 33.7965 V 18.8302
G01 X 124.2600 Y 8.2013 U 33.5044 V 18.8719
G01 X 123.5712 Y 8.2578 U 33.2124 V 18.9137
G01 X 122.8824 Y 8.3145 U 32.9203 V 18.9559
G01 X 122.1936 Y 8.3714 U 32.6284 V 18.9983
G01 X 121.5048 Y 8.4284 U 32.3364 V 19.0409
G01 X 120.8160 Y 8.4855 U 32.0445 V 19.0836
G01 X 120.1273 Y 8.5432 U 31.7526 V 19.1264
G01 X 119.4386 Y 8.6015 U 31.4606 V 19.1691
G01 X 118.7500 Y 8.6606 U 31.1687 V 19.2119
G01 X 118.0614 Y 8.7206 U 30.8768 V 19.2548
G01 X 117.3729 Y 8.7811 U 30.5850 V 19.2980
G01 X 116.6844 Y 8.8416 U 30.2931 V 19.3415
G01 X 115.9959 Y 8.9019 U 30.0014 V 19.3853
G01 X 115.3074 Y 8.9619 U 29.7096 V 19.4292
G01 X 114.6189 Y 9.0219 U 29.4179 V 19.4732
G01 X 113.9304 Y 9.0824 U 29.1261 V 19.5172
G01 X 113.2419 Y 9.1437 U 28.8344 V 19.5612
G01 X 112.5536 Y 9.2059 U 28.5427 V 19.6052
G01 X 111.8653 Y 9.2689 U 28.2510 V 19.6495
G01 X 111.1771 Y 9.3325 U 27.9593 V 19.6942
G01 X 110.4889 Y 9.3965 U 27.6678 V 19.7392
G01 X 109.8008 Y 9.4608 U 27.3762 V 19.7845
G01 X 109.1127 Y 9.5253 U 27.0847 V 19.8302
G01 X 108.4245 Y 9.5898 U 26.7933 V 19.8763
G01 X 107.7364 Y 9.6544 U 26.5019 V 19.9226
G01 X 107.0483 Y 9.7191 U 26.2106 V 19.9691
G01 X 106.3602 Y 9.7842 U 25.9193 V 20.0158
G01 X 105.6722 Y 9.8500 U 25.6279 V 20.0625
G01 X 104.9843 Y 9.9168 U 25.3366 V 20.1091
G01 X 104.2965 Y 9.9845 U 25.0453 V 20.1558
G01 X 103.6087 Y 10.0527 U 24.7540 V 20.2024
G01 X 102.9210 Y 10.1211 U 24.4626 V 20.2491
G01 X 102.2332 Y 10.1891 U 24.1713 V 20.2959
G01 X 101.5454 Y 10.2569 U 23.8801 V 20.3429
G01 X 100.8575 Y 10.3247 U 23.5888 V 20.3901
G01 X 100.1698 Y 10.3927 U 23.2976 V 20.4375
G01 X 99.4820 Y 10.4613 U 23.0065 V 20.4851
G01 X 98.7944 Y 10.5305 U 22.7153 V 20.5329
G01 X 98.1067 Y 10.6002 U 22.4242 V 20.5810
G01 X 97.4191 Y 10.6702 U 22.1332 V 20.6293
G01 X 96.7316 Y 10.7403 U 21.8422 V 20.6779
G01 X 96.0440 Y 10.8106 U 21.5512 V 20.7266
G01 X 95.3564 Y 10.8810 U 21.2602 V 20.7753
G01 X 94.6689 Y 10.9516 U 20.9692 V 20.8239
G01 X 93.9814 Y 11.0225 U 20.6781 V 20.8723
G01 X 93.2939 Y 11.0937 U 20.3871 V 20.9207
G01 X 92.6065 Y 11.1651 U 20.0961 V 20.9692
G01 X 91.9191 Y 11.2367 U 19.8051 V 21.0179
G01 X 91.2317 Y 11.3086 U 19.5141 V 21.0669
G01 X 90.5443 Y 11.3806 U 19.2232 V 21.1162
G01 X 89.8569 Y 11.4528 U 18.9324 V 21.1656
G01 X 89.1696 Y 11.5250 U 18.6415 V 21.2151
G01 X 88.4822 Y 11.5973 U 18.3506 V 21.2644
G01 X 87.7948 Y 11.6695 U 18.0597 V 21.3137
G01 X 87.1075 Y 11.7416 U 17.7688 V 21.3628
G01 X 86.4201 Y 11.8135 U 17.4779 V 21.4118
G01 X 85.7326 Y 11.8851 U 17.1869 V 21.4608
G01 X 85.0452 Y 11.9566 U 16.8959 V 21.5096
G01 X 84.3577 Y 12.0279 U 16.6050 V 21.5584
G01 X 83.6703 Y 12.0992 U 16.3140 V 21.6072
G01 X 82.9828 Y 12.1706 U 16.0230 V 21.6561
G01 X 82.2954 Y 12.2421 U 15.7321 V 21.7050
G01 X 81.6080 Y 12.3136 U 15.4411 V 21.7537
G01 X 80.9205 Y 12.3848 U 15.1501 V 21.8023
G01 X 80.2330 Y 12.4558 U 14.8590 V 21.8506
G01 X 79.5455 Y 12.5266 U 14.5679 V 21.8987
G01 X 78.8580 Y 12.5971 U 14.2768 V 21.9467
G01 X 78.1704 Y 12.6677 U 13.9857 V 21.9948
G01 X 77.4829 Y 12.7383 U 13.6947 V 22.0430
G01 X 76.7954 Y 12.8090 U 13.4036 V 22.0914
G01 X 76.1079 Y 12.8798 U 13.1126 V 22.1399
G01 X 75.4204 Y 12.9505 U 12.8216 V 22.1883
G01 X 74.7328 Y 13.0211 U 12.5305 V 22.2366
G01 X 74.0453 Y 13.0914 U 12.2394 V 22.2846
G01 X 73.3577 Y 13.1614 U 11.9482 V 22.3323
G01 X 72.6700 Y 13.2309 U 11.6570 V 22.3797
G01 X 71.9823 Y 13.2998 U 11.3657 V 22.4267
G01 X 71.2946 Y 13.3683 U 11.0744 V 22.4734
G01 X 70.6068 Y 13.4368 U 10.7831 V 22.5201
G01 X 69.9191 Y 13.5055 U 10.4918 V 22.5670
G01 X 69.2314 Y 13.5747 U 10.2006 V 22.6143
G01 X 68.5438 Y 13.6445 U 9.9095 V 22.6621
G01 X 58.5951 Y 14.6772 U 0.0421 V 24.3006
G01 X 0.0000 Y 14.6772 U 0.0000 V 24.3006
G00 X 0.0000 Y 14.6772 U 0.0000 V 24.3006
G00 X 0.0000 Y 0.0000 U 0.0000 V 0.0000
M5
M30
