( Made using CamBam - http://www.cambam.co.uk )
( ani_vibra_esp8CB 8/30/2010 2:23:36 PM )
( T1 : 1.0 )
( T2 : 4.0 )
( T3 : 5.1 )
G21 G90 G64 G40
G0 Z2.0
( T3 : 5.1 )
T3 M6
( Drill1 )
G17
M3 S5000
G0 Z2.0
G0 X54.74854 Y47.26984
G83 Z-12.7 Q2.0 R2.0 F30.0
G83 X22.50155 Z-12.7 Q2.0 R2.0
G83 Y14.88354 Z-12.7 Q2.0 R2.0
G83 X54.74854 Z-12.7 Q2.0 R2.0
G80
( Pocket1 )
G0 Z8.0
( T2 : 4.0 )
T2 M6
M3 S5000
G0 X38.62504 Y30.00308
G1 Z-2.0
G1 F300.0 X37.73504 Y30.51692
G1 Y31.5446
G1 X38.62504 Y32.05845
G1 X39.51504 Y31.5446
G1 Y30.51692
G1 X38.62504 Y30.00308
G1 F30.0 X39.42504 Y28.61744
G1 F300.0 X38.62504 Y28.15556
G1 X36.13504 Y29.59316
G1 Y32.46836
G1 X38.62504 Y33.90597
G1 X41.11504 Y32.46836
G1 Y29.59316
G1 X39.42504 Y28.61744
G1 F30.0 X40.22504 Y27.2318
G1 F300.0 X38.62504 Y26.30804
G1 X34.53504 Y28.6694
G1 Y33.39213
G1 X38.62504 Y35.75349
G1 X42.71504 Y33.39212
G1 Y28.6694
G1 X40.22504 Y27.2318
G1 F30.0 X41.02504 Y25.84616
G1 F300.0 X38.62504 Y24.46052
G1 X32.93504 Y27.74564
G1 Y34.31589
G1 X38.62504 Y37.60101
G1 X44.31504 Y34.31588
G1 Y27.74564
G1 X41.02504 Y25.84616
G1 F30.0 X41.82504 Y24.46052
G1 F300.0 X38.62504 Y22.613
G1 X31.33504 Y26.82188
G1 Y35.23965
G1 X38.62504 Y39.44853
G1 X45.91504 Y35.23965
G1 Y26.82188
G1 X41.82504 Y24.46052
G1 F30.0 X42.62504 Y23.07488
G1 F300.0 X38.62504 Y20.76548
G1 X29.73504 Y25.89812
G1 Y36.16341
G1 X38.62504 Y41.29605
G1 X47.51504 Y36.16341
G1 Y25.89812
G1 X42.62504 Y23.07488
G0 Z8.0
G0 X38.62504 Y30.00308
G1 F30.0 Z-4.0
G1 F300.0 X37.73504 Y30.51692
G1 Y31.5446
G1 X38.62504 Y32.05845
G1 X39.51504 Y31.5446
G1 Y30.51692
G1 X38.62504 Y30.00308
G1 F30.0 X39.42504 Y28.61744
G1 F300.0 X38.62504 Y28.15556
G1 X36.13504 Y29.59316
G1 Y32.46836
G1 X38.62504 Y33.90597
G1 X41.11504 Y32.46836
G1 Y29.59316
G1 X39.42504 Y28.61744
G1 F30.0 X40.22504 Y27.2318
G1 F300.0 X38.62504 Y26.30804
G1 X34.53504 Y28.6694
G1 Y33.39213
G1 X38.62504 Y35.75349
G1 X42.71504 Y33.39212
G1 Y28.6694
G1 X40.22504 Y27.2318
G1 F30.0 X41.02504 Y25.84616
G1 F300.0 X38.62504 Y24.46052
G1 X32.93504 Y27.74564
G1 Y34.31589
G1 X38.62504 Y37.60101
G1 X44.31504 Y34.31588
G1 Y27.74564
G1 X41.02504 Y25.84616
G1 F30.0 X41.82504 Y24.46052
G1 F300.0 X38.62504 Y22.613
G1 X31.33504 Y26.82188
G1 Y35.23965
G1 X38.62504 Y39.44853
G1 X45.91504 Y35.23965
G1 Y26.82188
G1 X41.82504 Y24.46052
G1 F30.0 X42.62504 Y23.07488
G1 F300.0 X38.62504 Y20.76548
G1 X29.73504 Y25.89812
G1 Y36.16341
G1 X38.62504 Y41.29605
G1 X47.51504 Y36.16341
G1 Y25.89812
G1 X42.62504 Y23.07488
G0 Z8.0
G0 X38.62504 Y30.00308
G1 F30.0 Z-6.0
G1 F300.0 X37.73504 Y30.51692
G1 Y31.5446
G1 X38.62504 Y32.05845
G1 X39.51504 Y31.5446
G1 Y30.51692
G1 X38.62504 Y30.00308
G1 F30.0 X39.42504 Y28.61744
G1 F300.0 X38.62504 Y28.15556
G1 X36.13504 Y29.59316
G1 Y32.46836
G1 X38.62504 Y33.90597
G1 X41.11504 Y32.46836
G1 Y29.59316
G1 X39.42504 Y28.61744
G1 F30.0 X40.22504 Y27.2318
G1 F300.0 X38.62504 Y26.30804
G1 X34.53504 Y28.6694
G1 Y33.39213
G1 X38.62504 Y35.75349
G1 X42.71504 Y33.39212
G1 Y28.6694
G1 X40.22504 Y27.2318
G1 F30.0 X41.02504 Y25.84616
G1 F300.0 X38.62504 Y24.46052
G1 X32.93504 Y27.74564
G1 Y34.31589
G1 X38.62504 Y37.60101
G1 X44.31504 Y34.31588
G1 Y27.74564
G1 X41.02504 Y25.84616
G1 F30.0 X41.82504 Y24.46052
G1 F300.0 X38.62504 Y22.613
G1 X31.33504 Y26.82188
G1 Y35.23965
G1 X38.62504 Y39.44853
G1 X45.91504 Y35.23965
G1 Y26.82188
G1 X41.82504 Y24.46052
G1 F30.0 X42.62504 Y23.07488
G1 F300.0 X38.62504 Y20.76548
G1 X29.73504 Y25.89812
G1 Y36.16341
G1 X38.62504 Y41.29605
G1 X47.51504 Y36.16341
G1 Y25.89812
G1 X42.62504 Y23.07488
G0 Z8.0
G0 X38.62504 Y30.00308
G1 F30.0 Z-8.0
G1 F300.0 X37.73504 Y30.51692
G1 Y31.5446
G1 X38.62504 Y32.05845
G1 X39.51504 Y31.5446
G1 Y30.51692
G1 X38.62504 Y30.00308
G1 F30.0 X39.42504 Y28.61744
G1 F300.0 X38.62504 Y28.15556
G1 X36.13504 Y29.59316
G1 Y32.46836
G1 X38.62504 Y33.90597
G1 X41.11504 Y32.46836
G1 Y29.59316
G1 X39.42504 Y28.61744
G1 F30.0 X40.22504 Y27.2318
G1 F300.0 X38.62504 Y26.30804
G1 X34.53504 Y28.6694
G1 Y33.39213
G1 X38.62504 Y35.75349
G1 X42.71504 Y33.39212
G1 Y28.6694
G1 X40.22504 Y27.2318
G1 F30.0 X41.02504 Y25.84616
G1 F300.0 X38.62504 Y24.46052
G1 X32.93504 Y27.74564
G1 Y34.31589
G1 X38.62504 Y37.60101
G1 X44.31504 Y34.31588
G1 Y27.74564
G1 X41.02504 Y25.84616
G1 F30.0 X41.82504 Y24.46052
G1 F300.0 X38.62504 Y22.613
G1 X31.33504 Y26.82188
G1 Y35.23965
G1 X38.62504 Y39.44853
G1 X45.91504 Y35.23965
G1 Y26.82188
G1 X41.82504 Y24.46052
G1 F30.0 X42.62504 Y23.07488
G1 F300.0 X38.62504 Y20.76548
G1 X29.73504 Y25.89812
G1 Y36.16341
G1 X38.62504 Y41.29605
G1 X47.51504 Y36.16341
G1 Y25.89812
G1 X42.62504 Y23.07488
G0 Z8.0
G0 X38.62504 Y30.00308
G1 F30.0 Z-10.0
G1 F300.0 X37.73504 Y30.51692
G1 Y31.5446
G1 X38.62504 Y32.05845
G1 X39.51504 Y31.5446
G1 Y30.51692
G1 X38.62504 Y30.00308
G1 F30.0 X39.42504 Y28.61744
G1 F300.0 X38.62504 Y28.15556
G1 X36.13504 Y29.59316
G1 Y32.46836
G1 X38.62504 Y33.90597
G1 X41.11504 Y32.46836
G1 Y29.59316
G1 X39.42504 Y28.61744
G1 F30.0 X40.22504 Y27.2318
G1 F300.0 X38.62504 Y26.30804
G1 X34.53504 Y28.6694
G1 Y33.39213
G1 X38.62504 Y35.75349
G1 X42.71504 Y33.39212
G1 Y28.6694
G1 X40.22504 Y27.2318
G1 F30.0 X41.02504 Y25.84616
G1 F300.0 X38.62504 Y24.46052
G1 X32.93504 Y27.74564
G1 Y34.31589
G1 X38.62504 Y37.60101
G1 X44.31504 Y34.31588
G1 Y27.74564
G1 X41.02504 Y25.84616
G1 F30.0 X41.82504 Y24.46052
G1 F300.0 X38.62504 Y22.613
G1 X31.33504 Y26.82188
G1 Y35.23965
G1 X38.62504 Y39.44853
G1 X45.91504 Y35.23965
G1 Y26.82188
G1 X41.82504 Y24.46052
G1 F30.0 X42.62504 Y23.07488
G1 F300.0 X38.62504 Y20.76548
G1 X29.73504 Y25.89812
G1 Y36.16341
G1 X38.62504 Y41.29605
G1 X47.51504 Y36.16341
G1 Y25.89812
G1 X42.62504 Y23.07488
G0 Z8.0
G0 X38.62504 Y30.00308
G1 F30.0 Z-10.75
G1 F300.0 X37.73504 Y30.51692
G1 Y31.5446
G1 X38.62504 Y32.05845
G1 X39.51504 Y31.5446
G1 Y30.51692
G1 X38.62504 Y30.00308
G1 F30.0 X39.42504 Y28.61744
G1 F300.0 X38.62504 Y28.15556
G1 X36.13504 Y29.59316
G1 Y32.46836
G1 X38.62504 Y33.90597
G1 X41.11504 Y32.46836
G1 Y29.59316
G1 X39.42504 Y28.61744
G1 F30.0 X40.22504 Y27.2318
G1 F300.0 X38.62504 Y26.30804
G1 X34.53504 Y28.6694
G1 Y33.39213
G1 X38.62504 Y35.75349
G1 X42.71504 Y33.39212
G1 Y28.6694
G1 X40.22504 Y27.2318
G1 F30.0 X41.02504 Y25.84616
G1 F300.0 X38.62504 Y24.46052
G1 X32.93504 Y27.74564
G1 Y34.31589
G1 X38.62504 Y37.60101
G1 X44.31504 Y34.31588
G1 Y27.74564
G1 X41.02504 Y25.84616
G1 F30.0 X41.82504 Y24.46052
G1 F300.0 X38.62504 Y22.613
G1 X31.33504 Y26.82188
G1 Y35.23965
G1 X38.62504 Y39.44853
G1 X45.91504 Y35.23965
G1 Y26.82188
G1 X41.82504 Y24.46052
G1 F30.0 X42.62504 Y23.07488
G1 F300.0 X38.62504 Y20.76548
G1 X29.73504 Y25.89812
G1 Y36.16341
G1 X38.62504 Y41.29605
G1 X47.51504 Y36.16341
G1 Y25.89812
G1 X42.62504 Y23.07488
G0 Z8.0
G0 X38.62504 Y30.00308
G1 F30.0 Z-11.5
G1 F300.0 X37.73504 Y30.51692
G1 Y31.5446
G1 X38.62504 Y32.05845
G1 X39.51504 Y31.5446
G1 Y30.51692
G1 X38.62504 Y30.00308
G1 F30.0 X39.42504 Y28.61744
G1 F300.0 X38.62504 Y28.15556
G1 X36.13504 Y29.59316
G1 Y32.46836
G1 X38.62504 Y33.90597
G1 X41.11504 Y32.46836
G1 Y29.59316
G1 X39.42504 Y28.61744
G1 F30.0 X40.22504 Y27.2318
G1 F300.0 X38.62504 Y26.30804
G1 X34.53504 Y28.6694
G1 Y33.39213
G1 X38.62504 Y35.75349
G1 X42.71504 Y33.39212
G1 Y28.6694
G1 X40.22504 Y27.2318
G1 F30.0 X41.02504 Y25.84616
G1 F300.0 X38.62504 Y24.46052
G1 X32.93504 Y27.74564
G1 Y34.31589
G1 X38.62504 Y37.60101
G1 X44.31504 Y34.31588
G1 Y27.74564
G1 X41.02504 Y25.84616
G1 F30.0 X41.82504 Y24.46052
G1 F300.0 X38.62504 Y22.613
G1 X31.33504 Y26.82188
G1 Y35.23965
G1 X38.62504 Y39.44853
G1 X45.91504 Y35.23965
G1 Y26.82188
G1 X41.82504 Y24.46052
G1 F30.0 X42.62504 Y23.07488
G1 F300.0 X38.62504 Y20.76548
G1 X29.73504 Y25.89812
G1 Y36.16341
G1 X38.62504 Y41.29605
G1 X47.51504 Y36.16341
G1 Y25.89812
G1 X42.62504 Y23.07488
( Pocket2 )
S5000
G0 Z8.0
G0 X39.22504 Y31.03102
G1 F30.0 Z-2.0
G2 F300.0 X38.32504 Y30.5114 I-0.6 J0.0
G2 Y31.55063 I0.3 J0.51962
G2 X39.22504 Y31.03102 I0.3 J-0.51962
G1 F30.0 X40.82504
G2 F300.0 X37.52504 Y29.12576 I-2.2 J0.0
G2 Y32.93627 I1.1 J1.90526
G2 X40.82504 Y31.03102 I1.1 J-1.90526
G1 F30.0 X42.42504
G2 F300.0 X36.72504 Y27.74012 I-3.8 J0.0
G2 Y34.32192 I1.9 J3.2909
G2 X42.42504 Y31.03102 I1.9 J-3.2909
G1 F30.0 X44.02504
G2 F300.0 X35.92504 Y26.35448 I-5.4 J0.0
G2 Y35.70756 I2.7 J4.67654
G2 X44.02504 Y31.03102 I2.7 J-4.67654
G1 F30.0 X45.62504
G2 F300.0 X35.12504 Y24.96884 I-7.0 J0.0
G2 Y37.0932 I3.5 J6.06218
G2 X45.62504 Y31.03102 I3.5 J-6.06218
G0 Z8.0
G0 X39.22504
G1 F30.0 Z-4.0
G2 F300.0 X38.32504 Y30.5114 I-0.6 J0.0
G2 Y31.55063 I0.3 J0.51962
G2 X39.22504 Y31.03102 I0.3 J-0.51962
G1 F30.0 X40.82504
G2 F300.0 X37.52504 Y29.12576 I-2.2 J0.0
G2 Y32.93627 I1.1 J1.90526
G2 X40.82504 Y31.03102 I1.1 J-1.90526
G1 F30.0 X42.42504
G2 F300.0 X36.72504 Y27.74012 I-3.8 J0.0
G2 Y34.32192 I1.9 J3.2909
G2 X42.42504 Y31.03102 I1.9 J-3.2909
G1 F30.0 X44.02504
G2 F300.0 X35.92504 Y26.35448 I-5.4 J0.0
G2 Y35.70756 I2.7 J4.67654
G2 X44.02504 Y31.03102 I2.7 J-4.67654
G1 F30.0 X45.62504
G2 F300.0 X35.12504 Y24.96884 I-7.0 J0.0
G2 Y37.0932 I3.5 J6.06218
G2 X45.62504 Y31.03102 I3.5 J-6.06218
G0 Z8.0
G0 X39.22504
G1 F30.0 Z-6.0
G2 F300.0 X38.32504 Y30.5114 I-0.6 J0.0
G2 Y31.55063 I0.3 J0.51962
G2 X39.22504 Y31.03102 I0.3 J-0.51962
G1 F30.0 X40.82504
G2 F300.0 X37.52504 Y29.12576 I-2.2 J0.0
G2 Y32.93627 I1.1 J1.90526
G2 X40.82504 Y31.03102 I1.1 J-1.90526
G1 F30.0 X42.42504
G2 F300.0 X36.72504 Y27.74012 I-3.8 J0.0
G2 Y34.32192 I1.9 J3.2909
G2 X42.42504 Y31.03102 I1.9 J-3.2909
G1 F30.0 X44.02504
G2 F300.0 X35.92504 Y26.35448 I-5.4 J0.0
G2 Y35.70756 I2.7 J4.67654
G2 X44.02504 Y31.03102 I2.7 J-4.67654
G1 F30.0 X45.62504
G2 F300.0 X35.12504 Y24.96884 I-7.0 J0.0
G2 Y37.0932 I3.5 J6.06218
G2 X45.62504 Y31.03102 I3.5 J-6.06218
G0 Z8.0
G0 X39.22504
G1 F30.0 Z-8.0
G2 F300.0 X38.32504 Y30.5114 I-0.6 J0.0
G2 Y31.55063 I0.3 J0.51962
G2 X39.22504 Y31.03102 I0.3 J-0.51962
G1 F30.0 X40.82504
G2 F300.0 X37.52504 Y29.12576 I-2.2 J0.0
G2 Y32.93627 I1.1 J1.90526
G2 X40.82504 Y31.03102 I1.1 J-1.90526
G1 F30.0 X42.42504
G2 F300.0 X36.72504 Y27.74012 I-3.8 J0.0
G2 Y34.32192 I1.9 J3.2909
G2 X42.42504 Y31.03102 I1.9 J-3.2909
G1 F30.0 X44.02504
G2 F300.0 X35.92504 Y26.35448 I-5.4 J0.0
G2 Y35.70756 I2.7 J4.67654
G2 X44.02504 Y31.03102 I2.7 J-4.67654
G1 F30.0 X45.62504
G2 F300.0 X35.12504 Y24.96884 I-7.0 J0.0
G2 Y37.0932 I3.5 J6.06218
G2 X45.62504 Y31.03102 I3.5 J-6.06218
G0 Z8.0
G0 X39.22504
G1 F30.0 Z-10.0
G2 F300.0 X38.32504 Y30.5114 I-0.6 J0.0
G2 Y31.55063 I0.3 J0.51962
G2 X39.22504 Y31.03102 I0.3 J-0.51962
G1 F30.0 X40.82504
G2 F300.0 X37.52504 Y29.12576 I-2.2 J0.0
G2 Y32.93627 I1.1 J1.90526
G2 X40.82504 Y31.03102 I1.1 J-1.90526
G1 F30.0 X42.42504
G2 F300.0 X36.72504 Y27.74012 I-3.8 J0.0
G2 Y34.32192 I1.9 J3.2909
G2 X42.42504 Y31.03102 I1.9 J-3.2909
G1 F30.0 X44.02504
G2 F300.0 X35.92504 Y26.35448 I-5.4 J0.0
G2 Y35.70756 I2.7 J4.67654
G2 X44.02504 Y31.03102 I2.7 J-4.67654
G1 F30.0 X45.62504
G2 F300.0 X35.12504 Y24.96884 I-7.0 J0.0
G2 Y37.0932 I3.5 J6.06218
G2 X45.62504 Y31.03102 I3.5 J-6.06218
G0 Z8.0
G0 X39.22504
G1 F30.0 Z-12.0
G2 F300.0 X38.32504 Y30.5114 I-0.6 J0.0
G2 Y31.55063 I0.3 J0.51962
G2 X39.22504 Y31.03102 I0.3 J-0.51962
G1 F30.0 X40.82504
G2 F300.0 X37.52504 Y29.12576 I-2.2 J0.0
G2 Y32.93627 I1.1 J1.90526
G2 X40.82504 Y31.03102 I1.1 J-1.90526
G1 F30.0 X42.42504
G2 F300.0 X36.72504 Y27.74012 I-3.8 J0.0
G2 Y34.32192 I1.9 J3.2909
G2 X42.42504 Y31.03102 I1.9 J-3.2909
G1 F30.0 X44.02504
G2 F300.0 X35.92504 Y26.35448 I-5.4 J0.0
G2 Y35.70756 I2.7 J4.67654
G2 X44.02504 Y31.03102 I2.7 J-4.67654
G1 F30.0 X45.62504
G2 F300.0 X35.12504 Y24.96884 I-7.0 J0.0
G2 Y37.0932 I3.5 J6.06218
G2 X45.62504 Y31.03102 I3.5 J-6.06218
G0 Z8.0
G0 X39.22504
G1 F30.0 Z-12.7
G2 F300.0 X38.32504 Y30.5114 I-0.6 J0.0
G2 Y31.55063 I0.3 J0.51962
G2 X39.22504 Y31.03102 I0.3 J-0.51962
G1 F30.0 X40.82504
G2 F300.0 X37.52504 Y29.12576 I-2.2 J0.0
G2 Y32.93627 I1.1 J1.90526
G2 X40.82504 Y31.03102 I1.1 J-1.90526
G1 F30.0 X42.42504
G2 F300.0 X36.72504 Y27.74012 I-3.8 J0.0
G2 Y34.32192 I1.9 J3.2909
G2 X42.42504 Y31.03102 I1.9 J-3.2909
G1 F30.0 X44.02504
G2 F300.0 X35.92504 Y26.35448 I-5.4 J0.0
G2 Y35.70756 I2.7 J4.67654
G2 X44.02504 Y31.03102 I2.7 J-4.67654
G1 F30.0 X45.62504
G2 F300.0 X35.12504 Y24.96884 I-7.0 J0.0
G2 Y37.0932 I3.5 J6.06218
G2 X45.62504 Y31.03102 I3.5 J-6.06218
( Profile1 )
G0 Z8.0
( T1 : 1.0 )
T1 M6
M3 S5000
G0 X53.58809 Y29.7241
G1 F30.0 Z-1.5
G1 F300.0 X53.82877
G1 Y25.06063
G3 X55.59877 Y23.29063 I1.77 J0.0
G1 X58.02838
G3 X59.79838 Y25.06063 I0.0 J1.77
G1 Y36.17743
G1 X60.54133
G1 Y21.8613
G3 X62.31133 Y20.0913 I1.77 J0.0
G1 X64.74099
G3 X66.51099 Y21.8613 I0.0 J1.77
G1 X66.51095 Y44.02358
G1 X67.2539
G1 Y12.97743
G1 X59.90867
G3 X50.23652 Y11.75867 I-5.15354 J1.91001
G2 X27.01357 I-11.61148 J19.27235
G3 X17.34141 Y12.97743 I-4.51861 J3.12878
G1 X9.99618
G1 Y44.02358
G1 X10.73913
G1 X10.7391 Y21.8613
G3 X12.5091 Y20.0913 I1.77 J0.0
G1 X14.93876
G3 X16.70876 Y21.8613 I0.0 J1.77
G1 Y36.17743
G1 X17.45171
G1 Y25.06063
G3 X19.22171 Y23.29063 I1.77 J0.0
G1 X21.65132
G3 X23.42132 Y25.06063 I0.0 J1.77
G1 Y29.7241
G1 X23.662
G3 X53.58809 I14.96305 J1.30692
G1 F30.0 Z-3.0
G1 F300.0 X53.82877
G1 Y25.06063
G3 X55.59877 Y23.29063 I1.77 J0.0
G1 X58.02838
G3 X59.79838 Y25.06063 I0.0 J1.77
G1 Y36.17743
G1 X60.54133
G1 Y21.8613
G3 X62.31133 Y20.0913 I1.77 J0.0
G1 X64.74099
G3 X66.51099 Y21.8613 I0.0 J1.77
G1 X66.51095 Y44.02358
G1 X67.2539
G1 Y12.97743
G1 X59.90867
G3 X50.23652 Y11.75867 I-5.15354 J1.91001
G2 X27.01357 I-11.61148 J19.27235
G3 X17.34141 Y12.97743 I-4.51861 J3.12878
G1 X9.99618
G1 Y44.02358
G1 X10.73913
G1 X10.7391 Y21.8613
G3 X12.5091 Y20.0913 I1.77 J0.0
G1 X14.93876
G3 X16.70876 Y21.8613 I0.0 J1.77
G1 Y36.17743
G1 X17.45171
G1 Y25.06063
G3 X19.22171 Y23.29063 I1.77 J0.0
G1 X21.65132
G3 X23.42132 Y25.06063 I0.0 J1.77
G1 Y29.7241
G1 X23.662
G3 X53.58809 I14.96305 J1.30692
G1 F30.0 Z-4.5
G1 F300.0 X53.82877
G1 Y25.06063
G3 X55.59877 Y23.29063 I1.77 J0.0
G1 X58.02838
G3 X59.79838 Y25.06063 I0.0 J1.77
G1 Y36.17743
G1 X60.54133
G1 Y21.8613
G3 X62.31133 Y20.0913 I1.77 J0.0
G1 X64.74099
G3 X66.51099 Y21.8613 I0.0 J1.77
G1 X66.51095 Y44.02358
G1 X67.2539
G1 Y12.97743
G1 X59.90867
G3 X50.23652 Y11.75867 I-5.15354 J1.91001
G2 X27.01357 I-11.61148 J19.27235
G3 X17.34141 Y12.97743 I-4.51861 J3.12878
G1 X9.99618
G1 Y44.02358
G1 X10.73913
G1 X10.7391 Y21.8613
G3 X12.5091 Y20.0913 I1.77 J0.0
G1 X14.93876
G3 X16.70876 Y21.8613 I0.0 J1.77
G1 Y36.17743
G1 X17.45171
G1 Y25.06063
G3 X19.22171 Y23.29063 I1.77 J0.0
G1 X21.65132
G3 X23.42132 Y25.06063 I0.0 J1.77
G1 Y29.7241
G1 X23.662
G3 X53.58809 I14.96305 J1.30692
G1 F30.0 Z-6.0
G1 F300.0 X53.82877
G1 Y25.06063
G3 X55.59877 Y23.29063 I1.77 J0.0
G1 X58.02838
G3 X59.79838 Y25.06063 I0.0 J1.77
G1 Y36.17743
G1 X60.54133
G1 Y21.8613
G3 X62.31133 Y20.0913 I1.77 J0.0
G1 X64.74099
G3 X66.51099 Y21.8613 I0.0 J1.77
G1 X66.51095 Y44.02358
G1 X67.2539
G1 Y12.97743
G1 X59.90867
G3 X50.23652 Y11.75867 I-5.15354 J1.91001
G2 X27.01357 I-11.61148 J19.27235
G3 X17.34141 Y12.97743 I-4.51861 J3.12878
G1 X9.99618
G1 Y44.02358
G1 X10.73913
G1 X10.7391 Y21.8613
G3 X12.5091 Y20.0913 I1.77 J0.0
G1 X14.93876
G3 X16.70876 Y21.8613 I0.0 J1.77
G1 Y36.17743
G1 X17.45171
G1 Y25.06063
G3 X19.22171 Y23.29063 I1.77 J0.0
G1 X21.65132
G3 X23.42132 Y25.06063 I0.0 J1.77
G1 Y29.7241
G1 X23.662
G3 X53.58809 I14.96305 J1.30692
G1 F30.0 Z-7.5
G1 F300.0 X53.82877
G1 Y25.06063
G3 X55.59877 Y23.29063 I1.77 J0.0
G1 X58.02838
G3 X59.79838 Y25.06063 I0.0 J1.77
G1 Y36.17743
G1 X60.54133
G1 Y21.8613
G3 X62.31133 Y20.0913 I1.77 J0.0
G1 X64.74099
G3 X66.51099 Y21.8613 I0.0 J1.77
G1 X66.51095 Y44.02358
G1 X67.2539
G1 Y12.97743
G1 X59.90867
G3 X50.23652 Y11.75867 I-5.15354 J1.91001
G2 X27.01357 I-11.61148 J19.27235
G3 X17.34141 Y12.97743 I-4.51861 J3.12878
G1 X9.99618
G1 Y44.02358
G1 X10.73913
G1 X10.7391 Y21.8613
G3 X12.5091 Y20.0913 I1.77 J0.0
G1 X14.93876
G3 X16.70876 Y21.8613 I0.0 J1.77
G1 Y36.17743
G1 X17.45171
G1 Y25.06063
G3 X19.22171 Y23.29063 I1.77 J0.0
G1 X21.65132
G3 X23.42132 Y25.06063 I0.0 J1.77
G1 Y29.7241
G1 X23.662
G3 X53.58809 I14.96305 J1.30692
G1 F30.0 Z-9.0
G1 F300.0 X53.82877
G1 Y25.06063
G3 X55.59877 Y23.29063 I1.77 J0.0
G1 X58.02838
G3 X59.79838 Y25.06063 I0.0 J1.77
G1 Y36.17743
G1 X60.54133
G1 Y21.8613
G3 X62.31133 Y20.0913 I1.77 J0.0
G1 X64.74099
G3 X66.51099 Y21.8613 I0.0 J1.77
G1 X66.51095 Y44.02358
G1 X67.2539
G1 Y12.97743
G1 X59.90867
G3 X50.23652 Y11.75867 I-5.15354 J1.91001
G2 X27.01357 I-11.61148 J19.27235
G3 X17.34141 Y12.97743 I-4.51861 J3.12878
G1 X9.99618
G1 Y44.02358
G1 X10.73913
G1 X10.7391 Y21.8613
G3 X12.5091 Y20.0913 I1.77 J0.0
G1 X14.93876
G3 X16.70876 Y21.8613 I0.0 J1.77
G1 Y36.17743
G1 X17.45171
G1 Y25.06063
G3 X19.22171 Y23.29063 I1.77 J0.0
G1 X21.65132
G3 X23.42132 Y25.06063 I0.0 J1.77
G1 Y29.7241
G1 X23.662
G3 X53.58809 I14.96305 J1.30692
G1 F30.0 Z-10.5
G1 F300.0 X53.82877
G1 Y25.06063
G3 X55.59877 Y23.29063 I1.77 J0.0
G1 X58.02838
G3 X59.79838 Y25.06063 I0.0 J1.77
G1 Y36.17743
G1 X60.54133
G1 Y21.8613
G3 X62.31133 Y20.0913 I1.77 J0.0
G1 X64.74099
G3 X66.51099 Y21.8613 I0.0 J1.77
G1 X66.51095 Y44.02358
G1 X67.2539
G1 Y12.97743
G1 X59.90867
G3 X50.23652 Y11.75867 I-5.15354 J1.91001
G2 X27.01357 I-11.61148 J19.27235
G3 X17.34141 Y12.97743 I-4.51861 J3.12878
G1 X9.99618
G1 Y44.02358
G1 X10.73913
G1 X10.7391 Y21.8613
G3 X12.5091 Y20.0913 I1.77 J0.0
G1 X14.93876
G3 X16.70876 Y21.8613 I0.0 J1.77
G1 Y36.17743
G1 X17.45171
G1 Y25.06063
G3 X19.22171 Y23.29063 I1.77 J0.0
G1 X21.65132
G3 X23.42132 Y25.06063 I0.0 J1.77
G1 Y29.7241
G1 X23.662
G3 X53.58809 I14.96305 J1.30692
G1 F30.0 Z-12.0
G1 F300.0 X53.82877
G1 Y25.06063
G3 X55.59877 Y23.29063 I1.77 J0.0
G1 X58.02838
G3 X59.79838 Y25.06063 I0.0 J1.77
G1 Y36.17743
G1 X60.54133
G1 Y21.8613
G3 X62.31133 Y20.0913 I1.77 J0.0
G1 X64.74099
G3 X66.51099 Y21.8613 I0.0 J1.77
G1 X66.51095 Y44.02358
G1 X67.2539
G1 Y12.97743
G1 X59.90867
G3 X50.23652 Y11.75867 I-5.15354 J1.91001
G2 X27.01357 I-11.61148 J19.27235
G3 X17.34141 Y12.97743 I-4.51861 J3.12878
G1 X9.99618
G1 Y44.02358
G1 X10.73913
G1 X10.7391 Y21.8613
G3 X12.5091 Y20.0913 I1.77 J0.0
G1 X14.93876
G3 X16.70876 Y21.8613 I0.0 J1.77
G1 Y36.17743
G1 X17.45171
G1 Y25.06063
G3 X19.22171 Y23.29063 I1.77 J0.0
G1 X21.65132
G3 X23.42132 Y25.06063 I0.0 J1.77
G1 Y29.7241
G1 X23.662
G3 X53.58809 I14.96305 J1.30692
G1 F30.0 Z-12.7
G1 F300.0 X53.82877
G1 Y25.06063
G3 X55.59877 Y23.29063 I1.77 J0.0
G1 X58.02838
G3 X59.79838 Y25.06063 I0.0 J1.77
G1 Y36.17743
G1 X60.54133
G1 Y21.8613
G3 X62.31133 Y20.0913 I1.77 J0.0
G1 X64.74099
G3 X66.51099 Y21.8613 I0.0 J1.77
G1 X66.51095 Y44.02358
G1 X67.2539
G1 Y12.97743
G1 X59.90867
G3 X50.23652 Y11.75867 I-5.15354 J1.91001
G2 X27.01357 I-11.61148 J19.27235
G3 X17.34141 Y12.97743 I-4.51861 J3.12878
G1 X9.99618
G1 Y44.02358
G1 X10.73913
G1 X10.7391 Y21.8613
G3 X12.5091 Y20.0913 I1.77 J0.0
G1 X14.93876
G3 X16.70876 Y21.8613 I0.0 J1.77
G1 Y36.17743
G1 X17.45171
G1 Y25.06063
G3 X19.22171 Y23.29063 I1.77 J0.0
G1 X21.65132
G3 X23.42132 Y25.06063 I0.0 J1.77
G1 Y29.7241
G1 X23.662
G3 X53.58809 I14.96305 J1.30692
( Profile2 )
S5000
G0 Z8.0
G0 X56.4421 Y25.8841
G1 F30.0 Z-1.5
G1 F300.0 Y30.56743
G3 X54.6721 Y32.33743 I-1.77 J0.0
G1 X53.58811
G3 X23.66198 I-14.96306 J-1.30641
G1 X22.57799
G3 X20.80799 Y30.56743 I0.0 J-1.77
G1 Y25.8841
G1 X20.06504
G1 Y37.0009
G3 X18.29504 Y38.7709 I-1.77 J0.0
G1 X15.86542
G3 X14.09542 Y37.0009 I0.0 J-1.77
G1 Y22.68477
G1 X13.35247
G1 Y44.84705
G3 X11.58247 Y46.61705 I-1.77 J0.0
G1 X9.15286
G3 X7.38286 Y44.84705 I0.0 J-1.77
G1 Y12.97743
G1 X5.6759
G1 Y49.08409
G1 X17.30776
G3 X24.35831 Y52.43387 I5.18712 J-1.82292
G1 X22.43611 Y54.72628
G3 X22.05298 Y54.90502 I-0.38313 J-0.32126
G1 X0.62504
G3 X0.12504 Y54.40502 I0.0 J-0.5
G1 Y7.40502
G3 X0.62508 Y6.90502 I0.5 J0.0
G1 X22.62283 Y6.90637
G3 X54.62726 I16.00221 J24.12464
G1 X76.62501 Y6.90502
G3 X77.12504 Y7.40502 I0.00003 J0.5
G1 Y54.40502
G3 X76.62504 Y54.90502 I-0.5 J0.0
G1 X55.19711
G3 X54.81398 Y54.72628 I0.0 J-0.5
G1 X52.89178 Y52.43387
G3 X59.94233 Y49.08409 I1.86343 J-5.1727
G1 X71.57419
G1 Y12.97743
G1 X69.86723
G1 Y44.84705
G3 X68.09723 Y46.61705 I-1.77 J0.0
G1 X65.66762
G3 X63.89762 Y44.84705 I0.0 J-1.77
G1 Y22.68477
G1 X63.15466
G1 Y37.0009
G3 X61.38466 Y38.7709 I-1.77 J0.0
G1 X58.95505
G3 X57.18505 Y37.0009 I0.0 J-1.77
G1 Y25.8841
G1 X56.4421
G1 F30.0 Z-3.0
G1 F300.0 Y30.56743
G3 X54.6721 Y32.33743 I-1.77 J0.0
G1 X53.58811
G3 X23.66198 I-14.96306 J-1.30641
G1 X22.57799
G3 X20.80799 Y30.56743 I0.0 J-1.77
G1 Y25.8841
G1 X20.06504
G1 Y37.0009
G3 X18.29504 Y38.7709 I-1.77 J0.0
G1 X15.86542
G3 X14.09542 Y37.0009 I0.0 J-1.77
G1 Y22.68477
G1 X13.35247
G1 Y44.84705
G3 X11.58247 Y46.61705 I-1.77 J0.0
G1 X9.15286
G3 X7.38286 Y44.84705 I0.0 J-1.77
G1 Y12.97743
G1 X5.6759
G1 Y49.08409
G1 X17.30776
G3 X24.35831 Y52.43387 I5.18712 J-1.82292
G1 X22.43611 Y54.72628
G3 X22.05298 Y54.90502 I-0.38313 J-0.32126
G1 X0.62504
G3 X0.12504 Y54.40502 I0.0 J-0.5
G1 Y7.40502
G3 X0.62508 Y6.90502 I0.5 J0.0
G1 X22.62283 Y6.90637
G3 X54.62726 I16.00221 J24.12464
G1 X76.62501 Y6.90502
G3 X77.12504 Y7.40502 I0.00003 J0.5
G1 Y54.40502
G3 X76.62504 Y54.90502 I-0.5 J0.0
G1 X55.19711
G3 X54.81398 Y54.72628 I0.0 J-0.5
G1 X52.89178 Y52.43387
G3 X59.94233 Y49.08409 I1.86343 J-5.1727
G1 X71.57419
G1 Y12.97743
G1 X69.86723
G1 Y44.84705
G3 X68.09723 Y46.61705 I-1.77 J0.0
G1 X65.66762
G3 X63.89762 Y44.84705 I0.0 J-1.77
G1 Y22.68477
G1 X63.15466
G1 Y37.0009
G3 X61.38466 Y38.7709 I-1.77 J0.0
G1 X58.95505
G3 X57.18505 Y37.0009 I0.0 J-1.77
G1 Y25.8841
G1 X56.4421
G1 F30.0 Z-4.5
G1 F300.0 Y30.56743
G3 X54.6721 Y32.33743 I-1.77 J0.0
G1 X53.58811
G3 X23.66198 I-14.96306 J-1.30641
G1 X22.57799
G3 X20.80799 Y30.56743 I0.0 J-1.77
G1 Y25.8841
G1 X20.06504
G1 Y37.0009
G3 X18.29504 Y38.7709 I-1.77 J0.0
G1 X15.86542
G3 X14.09542 Y37.0009 I0.0 J-1.77
G1 Y22.68477
G1 X13.35247
G1 Y44.84705
G3 X11.58247 Y46.61705 I-1.77 J0.0
G1 X9.15286
G3 X7.38286 Y44.84705 I0.0 J-1.77
G1 Y12.97743
G1 X5.6759
G1 Y49.08409
G1 X17.30776
G3 X24.35831 Y52.43387 I5.18712 J-1.82292
G1 X22.43611 Y54.72628
G3 X22.05298 Y54.90502 I-0.38313 J-0.32126
G1 X0.62504
G3 X0.12504 Y54.40502 I0.0 J-0.5
G1 Y7.40502
G3 X0.62508 Y6.90502 I0.5 J0.0
G1 X22.62283 Y6.90637
G3 X54.62726 I16.00221 J24.12464
G1 X76.62501 Y6.90502
G3 X77.12504 Y7.40502 I0.00003 J0.5
G1 Y54.40502
G3 X76.62504 Y54.90502 I-0.5 J0.0
G1 X55.19711
G3 X54.81398 Y54.72628 I0.0 J-0.5
G1 X52.89178 Y52.43387
G3 X59.94233 Y49.08409 I1.86343 J-5.1727
G1 X71.57419
G1 Y12.97743
G1 X69.86723
G1 Y44.84705
G3 X68.09723 Y46.61705 I-1.77 J0.0
G1 X65.66762
G3 X63.89762 Y44.84705 I0.0 J-1.77
G1 Y22.68477
G1 X63.15466
G1 Y37.0009
G3 X61.38466 Y38.7709 I-1.77 J0.0
G1 X58.95505
G3 X57.18505 Y37.0009 I0.0 J-1.77
G1 Y25.8841
G1 X56.4421
G1 F30.0 Z-6.0
G1 F300.0 Y30.56743
G3 X54.6721 Y32.33743 I-1.77 J0.0
G1 X53.58811
G3 X23.66198 I-14.96306 J-1.30641
G1 X22.57799
G3 X20.80799 Y30.56743 I0.0 J-1.77
G1 Y25.8841
G1 X20.06504
G1 Y37.0009
G3 X18.29504 Y38.7709 I-1.77 J0.0
G1 X15.86542
G3 X14.09542 Y37.0009 I0.0 J-1.77
G1 Y22.68477
G1 X13.35247
G1 Y44.84705
G3 X11.58247 Y46.61705 I-1.77 J0.0
G1 X9.15286
G3 X7.38286 Y44.84705 I0.0 J-1.77
G1 Y12.97743
G1 X5.6759
G1 Y49.08409
G1 X17.30776
G3 X24.35831 Y52.43387 I5.18712 J-1.82292
G1 X22.43611 Y54.72628
G3 X22.05298 Y54.90502 I-0.38313 J-0.32126
G1 X0.62504
G3 X0.12504 Y54.40502 I0.0 J-0.5
G1 Y7.40502
G3 X0.62508 Y6.90502 I0.5 J0.0
G1 X22.62283 Y6.90637
G3 X54.62726 I16.00221 J24.12464
G1 X76.62501 Y6.90502
G3 X77.12504 Y7.40502 I0.00003 J0.5
G1 Y54.40502
G3 X76.62504 Y54.90502 I-0.5 J0.0
G1 X55.19711
G3 X54.81398 Y54.72628 I0.0 J-0.5
G1 X52.89178 Y52.43387
G3 X59.94233 Y49.08409 I1.86343 J-5.1727
G1 X71.57419
G1 Y12.97743
G1 X69.86723
G1 Y44.84705
G3 X68.09723 Y46.61705 I-1.77 J0.0
G1 X65.66762
G3 X63.89762 Y44.84705 I0.0 J-1.77
G1 Y22.68477
G1 X63.15466
G1 Y37.0009
G3 X61.38466 Y38.7709 I-1.77 J0.0
G1 X58.95505
G3 X57.18505 Y37.0009 I0.0 J-1.77
G1 Y25.8841
G1 X56.4421
G1 F30.0 Z-7.5
G1 F300.0 Y30.56743
G3 X54.6721 Y32.33743 I-1.77 J0.0
G1 X53.58811
G3 X23.66198 I-14.96306 J-1.30641
G1 X22.57799
G3 X20.80799 Y30.56743 I0.0 J-1.77
G1 Y25.8841
G1 X20.06504
G1 Y37.0009
G3 X18.29504 Y38.7709 I-1.77 J0.0
G1 X15.86542
G3 X14.09542 Y37.0009 I0.0 J-1.77
G1 Y22.68477
G1 X13.35247
G1 Y44.84705
G3 X11.58247 Y46.61705 I-1.77 J0.0
G1 X9.15286
G3 X7.38286 Y44.84705 I0.0 J-1.77
G1 Y12.97743
G1 X5.6759
G1 Y49.08409
G1 X17.30776
G3 X24.35831 Y52.43387 I5.18712 J-1.82292
G1 X22.43611 Y54.72628
G3 X22.05298 Y54.90502 I-0.38313 J-0.32126
G1 X0.62504
G3 X0.12504 Y54.40502 I0.0 J-0.5
G1 Y7.40502
G3 X0.62508 Y6.90502 I0.5 J0.0
G1 X22.62283 Y6.90637
G3 X54.62726 I16.00221 J24.12464
G1 X76.62501 Y6.90502
G3 X77.12504 Y7.40502 I0.00003 J0.5
G1 Y54.40502
G3 X76.62504 Y54.90502 I-0.5 J0.0
G1 X55.19711
G3 X54.81398 Y54.72628 I0.0 J-0.5
G1 X52.89178 Y52.43387
G3 X59.94233 Y49.08409 I1.86343 J-5.1727
G1 X71.57419
G1 Y12.97743
G1 X69.86723
G1 Y44.84705
G3 X68.09723 Y46.61705 I-1.77 J0.0
G1 X65.66762
G3 X63.89762 Y44.84705 I0.0 J-1.77
G1 Y22.68477
G1 X63.15466
G1 Y37.0009
G3 X61.38466 Y38.7709 I-1.77 J0.0
G1 X58.95505
G3 X57.18505 Y37.0009 I0.0 J-1.77
G1 Y25.8841
G1 X56.4421
G1 F30.0 Z-9.0
G1 F300.0 Y30.56743
G3 X54.6721 Y32.33743 I-1.77 J0.0
G1 X53.58811
G3 X23.66198 I-14.96306 J-1.30641
G1 X22.57799
G3 X20.80799 Y30.56743 I0.0 J-1.77
G1 Y25.8841
G1 X20.06504
G1 Y37.0009
G3 X18.29504 Y38.7709 I-1.77 J0.0
G1 X15.86542
G3 X14.09542 Y37.0009 I0.0 J-1.77
G1 Y22.68477
G1 X13.35247
G1 Y44.84705
G3 X11.58247 Y46.61705 I-1.77 J0.0
G1 X9.15286
G3 X7.38286 Y44.84705 I0.0 J-1.77
G1 Y12.97743
G1 X5.6759
G1 Y49.08409
G1 X17.30776
G3 X24.35831 Y52.43387 I5.18712 J-1.82292
G1 X22.43611 Y54.72628
G3 X22.05298 Y54.90502 I-0.38313 J-0.32126
G1 X0.62504
G3 X0.12504 Y54.40502 I0.0 J-0.5
G1 Y7.40502
G3 X0.62508 Y6.90502 I0.5 J0.0
G1 X22.62283 Y6.90637
G3 X54.62726 I16.00221 J24.12464
G1 X76.62501 Y6.90502
G3 X77.12504 Y7.40502 I0.00003 J0.5
G1 Y54.40502
G3 X76.62504 Y54.90502 I-0.5 J0.0
G1 X55.19711
G3 X54.81398 Y54.72628 I0.0 J-0.5
G1 X52.89178 Y52.43387
G3 X59.94233 Y49.08409 I1.86343 J-5.1727
G1 X71.57419
G1 Y12.97743
G1 X69.86723
G1 Y44.84705
G3 X68.09723 Y46.61705 I-1.77 J0.0
G1 X65.66762
G3 X63.89762 Y44.84705 I0.0 J-1.77
G1 Y22.68477
G1 X63.15466
G1 Y37.0009
G3 X61.38466 Y38.7709 I-1.77 J0.0
G1 X58.95505
G3 X57.18505 Y37.0009 I0.0 J-1.77
G1 Y25.8841
G1 X56.4421
G1 F30.0 Z-10.5
G1 F300.0 Y30.56743
G3 X54.6721 Y32.33743 I-1.77 J0.0
G1 X53.58811
G3 X23.66198 I-14.96306 J-1.30641
G1 X22.57799
G3 X20.80799 Y30.56743 I0.0 J-1.77
G1 Y25.8841
G1 X20.06504
G1 Y37.0009
G3 X18.29504 Y38.7709 I-1.77 J0.0
G1 X15.86542
G3 X14.09542 Y37.0009 I0.0 J-1.77
G1 Y22.68477
G1 X13.35247
G1 Y44.84705
G3 X11.58247 Y46.61705 I-1.77 J0.0
G1 X9.15286
G3 X7.38286 Y44.84705 I0.0 J-1.77
G1 Y12.97743
G1 X5.6759
G1 Y49.08409
G1 X17.30776
G3 X24.35831 Y52.43387 I5.18712 J-1.82292
G1 X22.43611 Y54.72628
G3 X22.05298 Y54.90502 I-0.38313 J-0.32126
G1 X0.62504
G3 X0.12504 Y54.40502 I0.0 J-0.5
G1 Y7.40502
G3 X0.62508 Y6.90502 I0.5 J0.0
G1 X22.62283 Y6.90637
G3 X54.62726 I16.00221 J24.12464
G1 X76.62501 Y6.90502
G3 X77.12504 Y7.40502 I0.00003 J0.5
G1 Y54.40502
G3 X76.62504 Y54.90502 I-0.5 J0.0
G1 X55.19711
G3 X54.81398 Y54.72628 I0.0 J-0.5
G1 X52.89178 Y52.43387
G3 X59.94233 Y49.08409 I1.86343 J-5.1727
G1 X71.57419
G1 Y12.97743
G1 X69.86723
G1 Y44.84705
G3 X68.09723 Y46.61705 I-1.77 J0.0
G1 X65.66762
G3 X63.89762 Y44.84705 I0.0 J-1.77
G1 Y22.68477
G1 X63.15466
G1 Y37.0009
G3 X61.38466 Y38.7709 I-1.77 J0.0
G1 X58.95505
G3 X57.18505 Y37.0009 I0.0 J-1.77
G1 Y25.8841
G1 X56.4421
G1 F30.0 Z-12.0
G1 F300.0 Y30.56743
G3 X54.6721 Y32.33743 I-1.77 J0.0
G1 X53.58811
G3 X23.66198 I-14.96306 J-1.30641
G1 X22.57799
G3 X20.80799 Y30.56743 I0.0 J-1.77
G1 Y25.8841
G1 X20.06504
G1 Y37.0009
G3 X18.29504 Y38.7709 I-1.77 J0.0
G1 X15.86542
G3 X14.09542 Y37.0009 I0.0 J-1.77
G1 Y22.68477
G1 X13.35247
G1 Y44.84705
G3 X11.58247 Y46.61705 I-1.77 J0.0
G1 X9.15286
G3 X7.38286 Y44.84705 I0.0 J-1.77
G1 Y12.97743
G1 X5.6759
G1 Y49.08409
G1 X17.30776
G3 X24.35831 Y52.43387 I5.18712 J-1.82292
G1 X22.43611 Y54.72628
G3 X22.05298 Y54.90502 I-0.38313 J-0.32126
G1 X0.62504
G3 X0.12504 Y54.40502 I0.0 J-0.5
G1 Y7.40502
G3 X0.62508 Y6.90502 I0.5 J0.0
G1 X22.62283 Y6.90637
G3 X54.62726 I16.00221 J24.12464
G1 X76.62501 Y6.90502
G3 X77.12504 Y7.40502 I0.00003 J0.5
G1 Y54.40502
G3 X76.62504 Y54.90502 I-0.5 J0.0
G1 X55.19711
G3 X54.81398 Y54.72628 I0.0 J-0.5
G1 X52.89178 Y52.43387
G3 X59.94233 Y49.08409 I1.86343 J-5.1727
G1 X71.57419
G1 Y12.97743
G1 X69.86723
G1 Y44.84705
G3 X68.09723 Y46.61705 I-1.77 J0.0
G1 X65.66762
G3 X63.89762 Y44.84705 I0.0 J-1.77
G1 Y22.68477
G1 X63.15466
G1 Y37.0009
G3 X61.38466 Y38.7709 I-1.77 J0.0
G1 X58.95505
G3 X57.18505 Y37.0009 I0.0 J-1.77
G1 Y25.8841
G1 X56.4421
G1 F30.0 Z-12.7
G1 F300.0 Y30.56743
G3 X54.6721 Y32.33743 I-1.77 J0.0
G1 X53.58811
G3 X23.66198 I-14.96306 J-1.30641
G1 X22.57799
G3 X20.80799 Y30.56743 I0.0 J-1.77
G1 Y25.8841
G1 X20.06504
G1 Y37.0009
G3 X18.29504 Y38.7709 I-1.77 J0.0
G1 X15.86542
G3 X14.09542 Y37.0009 I0.0 J-1.77
G1 Y22.68477
G1 X13.35247
G1 Y44.84705
G3 X11.58247 Y46.61705 I-1.77 J0.0
G1 X9.15286
G3 X7.38286 Y44.84705 I0.0 J-1.77
G1 Y12.97743
G1 X5.6759
G1 Y49.08409
G1 X17.30776
G3 X24.35831 Y52.43387 I5.18712 J-1.82292
G1 X22.43611 Y54.72628
G3 X22.05298 Y54.90502 I-0.38313 J-0.32126
G1 X0.62504
G3 X0.12504 Y54.40502 I0.0 J-0.5
G1 Y7.40502
G3 X0.62508 Y6.90502 I0.5 J0.0
G1 X22.62283 Y6.90637
G3 X54.62726 I16.00221 J24.12464
G1 X76.62501 Y6.90502
G3 X77.12504 Y7.40502 I0.00003 J0.5
G1 Y54.40502
G3 X76.62504 Y54.90502 I-0.5 J0.0
G1 X55.19711
G3 X54.81398 Y54.72628 I0.0 J-0.5
G1 X52.89178 Y52.43387
G3 X59.94233 Y49.08409 I1.86343 J-5.1727
G1 X71.57419
G1 Y12.97743
G1 X69.86723
G1 Y44.84705
G3 X68.09723 Y46.61705 I-1.77 J0.0
G1 X65.66762
G3 X63.89762 Y44.84705 I0.0 J-1.77
G1 Y22.68477
G1 X63.15466
G1 Y37.0009
G3 X61.38466 Y38.7709 I-1.77 J0.0
G1 X58.95505
G3 X57.18505 Y37.0009 I0.0 J-1.77
G1 Y25.8841
G1 X56.4421
G0 Z8.0
M5
M30
